!!!!SEGMENT: pl-wn--mus-iii-108-035--001-003_wieniawski-henryk--concerto-no-2-allegro-moderato-a-la-zingara.krn
!!!cenid: 18xx:3803
!!!COM: Wieniawski, Henryk
!!!COM-rismID: pe137176
!!!CDT: 1835/07/10-1880/03/31
!!!CNT:
!!!OPR: Concerto No. 2
!!!OTL: Allegro moderato a la Zingara
!!!OMV: 003
!!!PDT:
!!!SMS-siglum: PL-Wn
!!!AGN:
!!!SMS-shelfmark: Mus.III.108.035
!!!SMS-shelfwork: 001-003 M
!!!SMS-variant:
!!!SMS-altvar:
!!!NIFC-rismSourceID:
!!!NIFC-rismChildID:
!!!NIFC-islandoraID: none
!!!URL-pdf-islandora:
!!!URL-scan: https://polona.pl/item/concerto-no-2-op-22,ODQxMDEyMDI/4 @EN{Scan on Polona} @PL{Skany w portalu Polona}
!!!ONB-nifc: UWAGA: części Koncertu: 1. Allegro moderato, 2. Romance (od skanu 20), 3. Allegro moderato a la Zingara (od skanu 26)
!!!AIN: 1 piano 1 violn
!!!OMD:
!!!OMD-mod: Allegro moderato
!!!key: d
**kern	**kern	**dynam	**kern	**fing	**dynam
*part2	*part2	*part2	*part1	*	*part1
*staff3	*staff2	*staff1/2	*staff1	*	*staff1
!	!	!	!LO:MO:mod=*null:null	!	!
*	*	*	*scale:80%	*	*
*I"PIANO.	*I"PIANO.	*	*I"VIOLON.	*	*
*mI"Pianoforte	*mI"Pianoforte	*	*mI"Violino	*	*
*Ipiano	*Ipiano	*	*Ivioln	*	*
*ICklav	*ICklav	*	*ICstr	*	*
*IGacmp	*IGacmp	*	*IGsolo	*	*
*clefF4	*clefG2	*	*clefG2	*	*
*kcancel	*kcancel	*	*kcancel	*	*
*k[b-]	*k[b-]	*	*k[b-]	*	*
*d:	*d:	*	*d:	*	*
*M2/4	*M2/4	*	*M2/4	*	*
=1	=1	=1	=1	=1	=1
*xywh-23:187,939,3474,804	*xywh-23:187,939,3474,804	*	*xywh-23:187,238,3626,731	*	*
!	!LO:TX:a:B:t=Allegro Moderato. (à la Zingara.):mod=	!	!LO:TX:a:B:t=Allegro Moderato.:mod=	!	!
8A\L 8D\	8f/L 8d/	f	2r	.	.
8A\ 8D\	8f/ 8d/	.	.	.	.
8A\ 8D\	8f/ 8d/	.	.	.	.
8A\J 8D\	8f/J 8d/	.	.	.	.
=2	=2	=2	=2	=2	=2
8A\L 8D\	8f/L 8d/	>	2r	.	.
8A\ 8D\	8f/ 8d/	.	.	.	.
8A\ 8D\	8f/ 8d/	.	.	.	.
!	!	!LO:MO:mod=]]	!	!	!
8A\J 8D\	8f/J 8d/	]	.	.	.
=3	=3	=3	=3	=3	=3
*	*^	*	*	*	*
8qDD/	.	.	.	.	.	.
!	!	!	!LO:DY:rj	!	!	!LO:MO:mod=.
8D\	2f^/	8d\L 8A'\	p	16r	.	p
!	!	!	!	!LO:TX:t=P:problem=up bow symbol inverted:global	!	!LO:MO:null:mod=p
.	.	.	.	16a'v\LL	.	.
8rF	.	8d\ 8A'\	.	16b-'\	.	.
.	.	.	.	16cc#X'\JJ	.	.
4rF	.	8d\ 8A'\	.	16dd'\LL	.	.
.	.	.	.	16cc#'\	.	.
.	.	8d\J 8A'\	.	16dd'\	.	.
.	.	.	.	16ff'\JJ	.	.
=4	=4	=4	=4	=4	=4	=4
2r	2e^/	8d\L 8A'\	.	16ee'\LL	.	.
.	.	.	.	16dd'\	.	.
.	.	8d\ 8A'\	.	16bn'\	.	.
.	.	.	.	16dd'\JJ	.	.
.	.	8c#X\ 8A'\	.	16cc#X'\LL	.	.
.	.	.	.	16dd'\	.	.
.	.	8c#\J 8A'\	.	16ee'\	.	.
.	.	.	.	16aa'\JJ	.	.
=5	=5	=5	=5	=5	=5	=5
(4DD/	(4f^/	8d\L 8A\	p	(>>8.ff^\L	.	<
.	.	8d\ 8A\	.	.	.	.
.	.	.	.	16dd\k	.	.
!	!	!	!	!LO:SIC:s=8.b-X^	!	!
4GG/	4g^/	8d\ 8B-\	.	8.b-^\	.	.
.	.	8d\J 8B-\	.	.	.	.
!	!	!	!	!LO:SIC:s=16ccnJk)	!	!LO:MO:mod=[[
.	.	.	.	16cc\Jk)	.	[
=6	=6	=6	=6	=6	=6	=6
!LO:SIC:s=[2D	!	!	!	!	!	!LO:MO:mod=>]
[2D\)	2a^/)	8f\L 8d\ 8A\	.	2a^>/	.	>
!	!	!	!	!	!	!LO:MO:mod=.
.	.	8f\ 8d\ 8A\	.	.	.	]]
.	.	8f\ 8d\ 8A\	.	.	.	.
.	.	8f\J 8d\ 8A\	.	.	.	.
=7	=7	=7	=7	=7	=7	=7
!LO:SIC:s=8D])	!	!	!	!	!	!
8D\]	2f/	8d\L 8A\	.	16r	.	.
.	.	.	.	16a'v\LL	.	p
8r	.	8d\ 8A\	.	16bn'\	.	.
.	.	.	.	16cc#X'\JJ	.	.
4r	.	8d\ 8A\	.	16dd'\LL	.	.
.	.	.	.	16cc#'\	.	.
.	.	8d\J 8A\	.	16dd'\	.	.
.	.	.	.	16ff'\JJ	.	.
!!LO:LB:g=original
=8	=8	=8	=8	=8	=8	=8
*xywh-23:132,2030,3590,743	*xywh-23:132,2030,3590,743	*xywh-23:132,2030,3590,743	*	*xywh-23:181,1682,3614,377	*	*
2r	2e/	8d\L 8A\	.	16ee'\LL	.	.
.	.	.	.	16dd'\	.	.
.	.	8d\ 8A\	.	16bn'\	.	.
.	.	.	.	16dd'\JJ	.	.
.	.	8cn\ 8A\	.	16ccn'\LL	.	.
.	.	.	.	16dd'\	.	.
.	.	8c\J 8A\	.	16ee'\	0	.
.	.	.	.	16ccc'\JJ	4	.
=9	=9	=9	=9	=9	=9	=9
!	!	!	!LO:DY:rj:b=2:mod= 	!	!	!
(4FF/	(4a^/	8f\L 8c\	p	(>>8.aa^\L	.	<
.	.	8f\ 8c\	.	.	.	.
.	.	.	.	16ff\k	.	.
4BB-/	4b-^/	8f\ 8d-X\	.	8.dd-X^\	.	.
.	.	8f\J 8d-\	.	.	.	.
!	!	!	!	!	!	!LO:MO:mod=[[
.	.	.	.	16ee-X\Jk)	.	[
=10	=10	=10	=10	=10	=10	=10
2F\)	2cc^/)	8a\L 8f\ 8c\	.	2cc^\	.	>
.	.	8a\ 8f\ 8c\	.	.	.	]]
.	.	8a\ 8f\ 8c\	.	.	.	.
.	.	8a\J 8f\ 8c\	.	.	.	.
*	*v	*v	*	*	*	*
=11	=11	=11	=11	=11	=11
8r	2aa\ 2a^\	p	16r	.	.
.	.	.	16aa'v\LL	.	.
8g'\L	.	.	16bbn'\	.	.
.	.	.	16ccc#X'\JJ	.	.
8f'\	.	.	16ddd'\LL	.	.
.	.	.	16ccc#'\	.	.
8d'\J	.	.	16ddd'\	.	.
.	.	.	16fff'\JJ	.	.
=12	=12	=12	=12	=12	=12
8r	2ff/ 2f^/	.	(16eee-X\LL	.	.
.	.	.	16ff\)	.	.
8e-X'\L	.	.	16gg'\	.	.
.	.	.	16aa'\JJ	1	.
8d'\	.	.	16bb-X'\LL	.	.
.	.	.	16aa'\	.	.
8B-'\J	.	.	16bb-'\	.	.
.	.	.	16ddd'\JJ	.	.
=13	=13	=13	=13	=13	=13
8r	2dd/ 2d^/	.	(16ccc\LL	.	.
.	.	.	16dd\)	.	.
8c'\L	.	.	16een'\	.	.
.	.	.	16ff#X'\JJ	.	.
8B-'\	.	.	16gg'\LL	.	.
.	.	.	16ff#'\	.	.
8G'\J	.	.	16gg'\	.	.
.	.	.	16bb-'\JJ	.	.
=14	=14	=14	=14	=14	=14
*	*^	*	*	*	*
4F\	2dd^/	4a\ 4d\	.	16aa'\LL	.	.
.	.	.	.	16a'\	.	.
.	.	.	.	16dd'\	.	.
.	.	.	.	16aa'\JJ	.	.
4B-\	.	4g#X\ 4e\	.	16gg#X'\LL	.	.
.	.	.	.	16b-'\	.	.
.	.	.	.	16dd'\	.	.
.	.	.	.	16gg#'\JJ	.	.
*	*v	*v	*	*	*	*
!!LO:LB:g=original
=15	=15	=15	=15	=15	=15
*xywh-23:138,3133,3504,676	*xywh-23:138,3133,3504,676	*	*xywh-23:144,2749,3651,408	*	*
8A\	8cc#X/ 8a/ 8e/	.	16aa'\LL	.	.
.	.	.	16ee'\	.	.
8r	8r	.	16cc#X'\	.	.
.	.	.	16a'\JJ	.	.
4r	4r	.	16cc#'\LL	.	.
.	.	.	16ee'\	.	.
.	.	.	16aa'\	.	.
.	.	.	16ccc#X'\JJ	.	.
=16	=16	=16	=16	=16	=16
!	!LO:MO:mod=!LO&colon;TX&colon;a&colon;t=Fg. I	!	!	!	!
!	!LO:TX:a:B:t=Fag. I°.	!	!	!	!
8F'\	(8.f/L	p	16ddd'\LL	.	.
.	.	.	16bb-'\	.	.
8r	.	.	16ff'\	.	.
.	16d/k	.	16bb-'\JJ	.	.
8BB-'/	8.B-/	.	16ddd'\LL	.	<
.	.	.	16bb-'\	.	.
8r	.	.	16ddd'\	2	.
.	16c#X/Jk	.	16eee'\JJ	3	.
=17	=17	=17	=17	=17	=17
*	*	*	*8va	*	*
8AA'/	8A/)	.	16eee\LL	.	.
.	.	.	16ccc#X\	.	.
8r	8r	.	16aa\	3	.
.	.	.	16ccc#\JJ	.	.
4r	4r	.	16eee\LL	.	.
.	.	.	16ccc#\	1	.
.	.	.	16eee\	1	.
.	.	.	16aaa\JJ	.	[[
=18	=18	=18	=18	=18	=18
!	!	!	!	!LO:MO:mod=*null:null	!
*	*	*	*	*below	*
8f'\	(8.ff\L	p	16fff\LL	2	.
.	.	.	16ddd\	4	.
8r	.	.	16fff\	.	.
.	16dd\k	.	16bbb-\JJ	1	.
8B-'\	8.b-\	.	16dddd\LL	3	.
.	.	.	16bbb-\	.	.
8r	.	.	16dddd\	.	.
!	!	!	!	!LO:MO:mod=4 0	!
.	16cc#X\Jk	.	16eeee\JJ	0 4	.
=19	=19	=19	=19	=19	=19
8A'\	8a/)	.	16eeee'\LL	.	.
.	.	.	16cccc#X'\	3	.
8r	8r	.	16aaa'\	1	.
!	!	!	!	!LO:MO:mod=4 0	!
.	.	.	16eee'\JJ	0 4	.
*	*	*	*X8va	*	*
!	!	!	!LO:SIC:s=16ccc#'LL	!	!
4r	4r	.	16cccn'\LL	.	.
.	.	.	16bbn'\	.	.
.	.	.	16aa'\	.	.
.	.	.	16ee'\JJ	.	.
=20	=20	=20	=20	=20	=20
2r	2r	.	16eee'\LL	.	.
.	.	.	16ccc#X'\	.	.
.	.	.	16aa'\	.	.
.	.	.	16ee'\JJ	.	.
!	!	!	!LO:SIC:s=16cc#'LL	!	!
.	.	.	16cc'/LL	.	.
.	.	.	16bn'/	.	.
.	.	.	16a'/	.	.
.	.	.	16e'/JJ	.	.
=21	=21	=21	=21	=21	=21
2r	2r	.	16ee'/LL	.	.
.	.	.	16cc#X'/	.	.
.	.	.	16a'/	.	.
.	.	.	16e'/JJ	.	.
.	.	.	16c#X/LL	.	<
.	.	.	16A/	.	.
.	.	.	16B-/	.	.
.	.	.	16Bn/JJ	.	[[
!!LO:LB:g=original
=22	=22	=22	=22	=22	=22
*xywh-23:150,4102,3657,987	*xywh-23:150,4102,3657,987	*	*xywh-23:150,3797,3620,396	*	*
2r	2r	.	16cn/LL	.	>
.	.	.	16c#X/	4	.
.	.	.	16d/	0	.
.	.	.	16e-X/JJ	.	.
.	.	.	16e-'/LL	.	.
.	.	.	16f'/	.	.
.	.	.	16f#X'/	.	.
.	.	.	16g'/JJ	.	]]
=23	=23	=23	=23	=23	=23
*	*^	*	*	*	*
!	!	!	!	!LO:TX:a:i:t=tranquillo.:mod=tranquillo	!	!
2r	2f^/	8d\L 8A\	p	16g#X'\LL	.	p
.	.	.	.	16a'\	.	.
.	.	8d\ 8A\	.	16bn'\	.	.
.	.	.	.	16cc#X'\JJ	.	.
.	.	8d\ 8A\	.	16dd'\LL	.	.
.	.	.	.	16cc#'\	.	.
.	.	8d\J 8A\	.	16dd'\	.	.
.	.	.	.	16ff'\JJ	.	.
=24	=24	=24	=24	=24	=24	=24
2r	2e^/	8d\L 8A\	.	16ee'\LL	.	.
.	.	.	.	16dd'\	.	.
.	.	8d\ 8A\	.	16bn'\	.	.
.	.	.	.	16dd'\JJ	.	.
.	.	8c#X\ 8A\	.	16cc#X'\LL	.	.
.	.	.	.	16dd'\	.	.
.	.	8c#\J 8A\	.	16ee'\	.	.
.	.	.	.	16aa'\JJ	.	.
=25	=25	=25	=25	=25	=25	=25
!	!	!	!LO:DY:rj:b=2:mod= 	!	!	!
(4DD/	(4f^/	8d\L 8A\	p	(8.ff^\L	.	<
.	.	8d\ 8A\	.	.	.	.
.	.	.	.	16dd\k	.	.
4GG/	4g^/	8d\ 8B-X\	.	8.b-^\	.	.
.	.	8d\J 8B-\	.	.	.	.
!	!	!	!	!	!	!LO:MO:mod=[[
.	.	.	.	16ccn\Jk)	.	[
=26	=26	=26	=26	=26	=26	=26
!LO:SIC:s=[2D	!	!	!	!	!	!
[2D\)	2a^/)	8f\L 8d\	.	2a^>/	.	.
.	.	8f\ 8d\	.	.	.	.
.	.	8f\ 8d\	.	.	.	.
.	.	8f\J 8d\	.	.	.	.
=27	=27	=27	=27	=27	=27	=27
!LO:SIC:s=8D])	!	!	!	!	!	!LO:MO:mod=.
8D\]	(2a^/	8f\L 8d\ 8A\	.	16r	.	p
!	!	!	!	!	!	!LO:MO:null:mod=p
.	.	.	.	16a'v\LL	.	.
8r	.	8f\ 8d\ 8A\	.	16bn'\	.	.
.	.	.	.	16cc#X'\JJ	.	.
4r	.	8f\ 8d\ 8A\	.	16dd'\LL	.	.
.	.	.	.	16cc#'\	.	.
.	.	8f\J 8d\ 8A\	.	16dd'\	.	.
.	.	.	.	16ff'\JJ	.	.
=28	=28	=28	=28	=28	=28	=28
(4G#X\	4bn/	8e\L 8d\	.	16ee'\LL	.	.
.	.	.	.	16dd'\	.	.
.	.	8e\ 8d\	.	16bn'\	.	.
.	.	.	.	16dd'\JJ	.	.
4A\)	4ccn/)	8e\ 8cn\	.	16ccn'\LL	.	.
.	.	.	.	16dd'\	.	.
*	*	*	*	*	*above	*
.	.	8e\J 8c\	.	16ee'\	0	.
.	.	.	.	16ccc'\JJ	1	.
!!LO:PB:g=original
=29	=29	=29	=29	=29	=29	=29
*xywh-24:464,763,3562,782	*xywh-24:464,763,3562,782	*xywh-24:464,763,3562,782	*	*xywh-24:525,281,3458,586	*	*
!	!	!	!	!LO:SIC:s=(8.aa^L	!	!
2r	(4ccn^/	8a\L 8f\	.	(8.aa'v\L	.	.
.	.	8a\ 8f\	.	.	.	.
.	.	.	.	16ff\k	.	.
!	!	!	!	!LO:SIC:s=8.dd-^	!	!
.	4dd-X^/	8a-X\ 8f\	.	8.dd-X'v\	.	.
.	.	8a-\J 8f\	.	.	.	.
.	.	.	.	16ee-X\Jk)	.	.
=30	=30	=30	=30	=30	=30	=30
2A-X^\	2ee-X^/)	8cc\L 8a-X\ 8e-X\	.	2cc\	.	.
.	.	8cc\ 8a-\ 8e-\	.	.	.	.
.	.	8cc\ 8a-\ 8e-\	.	.	.	.
.	.	8cc\J 8a-\ 8e-\	.	.	.	.
*	*v	*v	*	*	*	*
=31	=31	=31	=31	=31	=31
!	!LO:SIC:s=2ccc 2cc^	!	!	!	!
8r	2ccc/ 2cc/	.	16r	.	.
!	!	!	!LO:MO:mod=!LO&colon;TX&colon;a&colon;t=sul E&colon;dur=3qe&colon;ext=ud&colon;problem&colon;text with extension lines	!	!
!	!	!	!LO:TX:b:B:t=Sul E:dur=3qe:ext=ud:problem=text with extension lines	!	!
.	.	.	16ccc'v\LL	1	.
8b-X>'\L	.	.	16ddd'\	.	.
.	.	.	16eee'\JJ	1	.
8a-X>'\	.	.	16fff'\LL	.	.
.	.	.	16eee'\	.	.
8f>'\J	.	.	16fff'\	.	.
.	.	.	16aaa-X'\JJ	.	.
=32	=32	=32	=32	=32	=32
8r	2gg\ 2g^\	.	(16ggg\LL	3	.
.	.	.	16gg\)	1	.
8f'\L	.	.	16aan'\	.	.
.	.	.	16bbn'\JJ	1	.
8e-X'\	.	.	16ccc'\LL	.	.
.	.	.	16bb'\	.	.
8c'\J	.	.	16ccc'\	.	.
.	.	.	16eee-X'\JJ	.	.
=33	=33	=33	=33	=33	=33
8r	[2dd/ 2d/	.	(16ddd\LL	.	.
.	.	.	16dd\)	1	.
8c'\L	.	.	16een'\	0	.
.	.	.	16ff#X'\JJ	1	.
8B-'\	.	.	16gg'\LL	.	.
.	.	.	16ff#'\	.	.
8G'\J	.	.	16gg'\	.	.
.	.	.	16bb-'\JJ	.	.
=34	=34	=34	=34	=34	=34
*	*^	*	*	*	*
(4F\	2dd/]	(4a\ 4d\	.	16aa'\LL	.	.
.	.	.	.	16a'\	.	.
.	.	.	.	16dd'\	.	.
.	.	.	.	16aa'\JJ	.	.
4B-\)	.	4g#X\ 4e\)	.	16gg#X'\LL	.	.
.	.	.	.	16b-'\	.	.
.	.	.	.	16dd'\	.	.
.	.	.	.	16gg#'\JJ	.	.
*	*v	*v	*	*	*	*
=35	=35	=35	=35	=35	=35
8A\	8dd/ 8a/ 8f/	.	16aa\LL	.	<
.	.	.	16a\	0	.
8r	8r	.	16aa\	3	.
.	.	.	16fff^\JJ	1	.
4r	4r	.	16eee\LL	.	.
.	.	.	16a\	0	.
.	.	.	16ff\	3	.
.	.	.	16ddd^\JJ	.	.
!!LO:PB:g=original
=36	=36	=36	=36	=36	=36
*xywh-24:409,1943,3580,757	*xywh-24:409,1943,3580,757	*	*xywh-24:434,1448,3574,537	*	*
2r	2r	.	16ccc\LL	.	.
.	.	.	16a\	0	.
.	.	.	16dd\	3	.
.	.	.	16bb-^\JJ	.	.
.	.	.	16aa\LL	.	.
.	.	.	16a\	0	.
.	.	.	16b-\	.	.
!	!	!	!	!	!LO:MO:mod=[[
.	.	.	16gg#X^\JJ	.	[
=37	=37	=37	=37	=37	=37
8d\ 8A\	8ff/ 8dd/ 8a/ 8f/	.	16aa\LL	.	.
.	.	.	16a\	0	.
8r	8r	.	16aa^\	1	.
.	.	.	16aaa\JJ	4	.
4r	4r	.	16gggn\LL	.	.
.	.	.	16a\	0	.
.	.	.	16ff^\	1	.
.	.	.	16fff\JJ	4	.
=38	=38	=38	=38	=38	=38
2r	2r	.	16eee\LL	.	>
.	.	.	16a\	0	.
.	.	.	16dd^\	1	.
.	.	.	16ddd\JJ	4	.
.	.	.	16ccc\LL	.	.
.	.	.	16a\	.	.
.	.	.	16b-^\	.	.
!	!	!	!	!	!LO:MO:mod=]]
.	.	.	16bb-\JJ	.	]
=39	=39	=39	=39	=39	=39
8f\ 8d\ 8A\	8aa\ 8ff\ 8dd\ 8a\	.	16aa'\LL	.	.
.	.	.	16ff'\	.	.
8r	8r	.	16dd'\	.	.
.	.	.	16a'\JJ	.	.
4r	4r	.	16f'/LL	.	.
.	.	.	16d'/	.	.
.	.	.	16A'/	.	.
.	.	.	16G#X'/JJ	.	.
=40	=40	=40	=40	=40	=40
2r	2r	.	16A'/LL	.	.
.	.	.	16Bn'/	.	.
.	.	.	16c#X'/	.	<
.	.	.	16d'/JJ	.	.
.	.	.	16e/LL	.	.
.	.	.	16f/	.	.
.	.	.	16g/	.	.
.	.	.	16a/JJ	.	[
=41	=41	=41	=41	=41	=41
!	!	!	!LO:TX:b:t=cre_scen_do:ext2=ud:problem=dynamics with extension lines:mod=	!	!LO:HP:t=cre_scen_do
[2A\	[2a/ [>2e/ 2d/	.	(16bn\LL	.	<
.	.	.	16cc#X\	.	.
.	.	.	16dd\	.	.
.	.	.	16ee\JJ)	.	.
.	.	.	16ff\LL	.	.
.	.	.	16gg\	.	.
.	.	.	16aa\	1	.
.	.	.	16bbn\JJ	.	.
=42	=42	=42	=42	=42	=42
8A\]	8a/] 8e/] 8c#X/	.	16ccc#X\LL	1	.
.	.	.	16ddd\	.	.
8r	8r	.	16eee\	1	.
.	.	.	16fff\JJ	.	.
8AA/ 8AAA/	8aa\ 8ee\ 8cc#X\ 8a\ 8g\	.	16ggg\LL	1	.
.	.	.	16aaa\	.	.
8r	8r	.	16bbbn\	.	.
!	!	!	!	!	!LO:MO:mod=[[
.	.	.	16cccc#X\JJ	4	[
!!LO:LB:g=original
=43	=43	=43	=43	=43	=43
!!LO:TX:a:i:t= :mod=poco rit.
*xywh-24:403,2890,3641,824	*xywh-24:403,2890,3641,824	*	*xywh-24:440,2554,3556,433	*	*
!	!	!	!	!	!LO:MO:mod=!LO&colon;DY&colon;ed=brack
!	!	!	!	!	!null
!	!LO:TX:a:B:t=TUTTI:mod=	!	!LO:TX:b:B:t=Tempo poco rit.:mod=	!	!LO:MO:null:mod=f
8AA/L 8DD/	16r	ff	8dddd\	.	.
!!LO:TX:a:t= :mod=Tutti
!	!	!	!LO:TX:a:B:t=TUTTI:mod=	!	!
.	16a\LL	.	.	.	.
8AA/ 8DD/	16bn\	.	8r	.	.
.	16cc#X\JJ	.	.	.	.
8AA/ 8DD/	16dd\LL	.	4r	.	.
.	16cc#\	.	.	.	.
8AA/J 8DD/	16dd\	.	.	.	.
.	16ff\JJ	.	.	.	.
=44	=44	=44	=44	=44	=44
8AA/L 8DD/	16ee\LL	.	2r	.	.
.	16dd\	.	.	.	.
8AA/ 8DD/	16bn\	.	.	.	.
.	16dd\JJ	.	.	.	.
8AA/ 8DD/	16cc#X\LL	.	.	.	.
.	16dd\	.	.	.	.
8AA/J 8DD/	16ee\	.	.	.	.
.	16aa\JJ	.	.	.	.
=45	=45	=45	=45	=45	=45
8D/ 8AA/ 8DD/	(8.ff^\L	.	2r	.	.
8r	.	.	.	.	.
.	16dd\k	.	.	.	.
4r	8.b-X^\	.	.	.	.
!	!LO:SIC:s=16ccnJk)	!	!	!	!
.	16cc\Jk)	.	.	.	.
=46	=46	=46	=46	=46	=46
*	*^	*	*	*	*
4r	(>>8.a/L 8.f^>>/	4ryy	.	2r	.	.
.	16d/k	.	.	.	.	.
4C/ 4EE/	8.B-^/	4G^\	.	.	.	.
.	16c/Jk)	.	.	.	.	.
*	*v	*v	*	*	*	*
=47	=47	=47	=47	=47	=47
8C/L 8FF/	16A-X/LL 16F/	.	2r	.	.
.	16cc/	.	.	.	.
8C/ 8FF/	16dd/	.	.	.	.
!	!LO:SIC:s=16eeJJ	!	!	!	!
.	16een/JJ	.	.	.	.
8C/ 8FF/	16ff\LL	.	.	.	.
.	16ee\	.	.	.	.
8C/J 8FF/	16ff\	.	.	.	.
.	16aa-X\JJ	.	.	.	.
!!LO:LB:g=original
=48	=48	=48	=48	=48	=48
*xywh-24:385,4002,3647,1063	*xywh-24:385,4002,3647,1063	*	*xywh-24:446,3672,3586,378	*	*
8C/L 8FF/	16gg\LL	.	2r	.	.
.	16ff\	.	.	.	.
8C/ 8FF/	16dd\	.	.	.	.
.	16ff\JJ	.	.	.	.
!	!LO:SIC:s=16eeLL	!	!	!	!
8C/ 8FF/	16een\LL	.	.	.	.
.	16ff\	.	.	.	.
8C/J 8FF/	16gg\	.	.	.	.
.	16ccc\JJ	.	.	.	.
=49	=49	=49	=49	=49	=49
8F/ 8C/ 8FF/	(8.aa-X^\L	.	2r	.	.
8r	.	.	.	.	.
.	16ff\k	.	.	.	.
4r	8.dd-X^\	.	.	.	.
.	16ee-X\Jk)	.	.	.	.
=50	=50	=50	=50	=50	=50
*	*^	*	*	*	*
4r	(>>8.cc/L 8.a-X^>>/	4ryy	.	2r	.	.
.	16f/k	.	.	.	.	.
4E-X/ 4GG/	8.d-X^/	4B-^\	.	.	.	.
.	16e-X/Jk)	.	.	.	.	.
*	*v	*v	*	*	*	*
=51	=51	=51	=51	=51	=51
4E-X/ 4AA-X/	8.c/L 8.A-X/	.	2r	.	.
.	(16e-X/k	.	.	.	.
8.r	8.cc/)	.	.	.	.
(16E-\	(16b-/Jk	.	.	.	.
=52	=52	=52	=52	=52	=52
8.c\L)	8.a-X/L)	.	2r	.	.
(16B-\k	(16en/k	.	.	.	.
8.A-X\)	8.f/)	.	.	.	.
(16En\Jk	(16c/Jk	.	.	.	.
=53	=53	=53	=53	=53	=53
8.F\L)	8.d-X/L)	.	2r	.	.
(16C\k 16AA\	(16f/k	.	.	.	.
8.D-X\ 8.BB-\)	8.dd-X/)	.	.	.	.
(16F\Jk	(16cc/Jk	.	.	.	.
!!LO:PB:g=original
=54	=54	=54	=54	=54	=54
*xywh-25:150,841,3419,786	*xywh-25:150,841,3419,786	*	*xywh-25:144,335,3596,554	*	*
8.d\L)	8.b-/L)	.	2r	.	.
(16c\k	(16f#X/k	.	.	.	.
8.B-\)	8.g/)	.	.	.	.
(16F#X\Jk	(16d/Jk	.	.	.	.
=55	=55	=55	=55	=55	=55
8.G\L)	8.e-X/L)	.	2r	.	.
(16D\k 16BBn\	(16g/k	.	.	.	.
8.E-X\ 8.C\)	8.ee-X/)	.	.	.	.
N(<<16G\Jk	(>>16dd/Jk	.	.	.	.
=56	=56	=56	=56	=56	=56
*	*^	*	*	*	*
8.r	8.cc/L 8.e-X/)N)	4ryy	.	2r	.	.
(16GG/	(16b-/k (>>16d/	.	.	.	.	.
8.E-X/L)	8.a/)	4c#X^\)	.	.	.	.
(16EE-X/Jk	16g/Jk	.	.	.	.	.
*	*v	*v	*	*	*	*
=57	=57	=57	=57	=57	=57
8AA/L 8DD/)	16f#X/LL 16d/	.	2r	.	.
.	16a/	.	.	.	.
8AA/ 8DD/	16bn/	.	.	.	.
.	16cc#X/JJ	.	.	.	.
8AA/ 8DD/	16dd\LL	.	.	.	.
.	16cc#\	.	.	.	.
8AA/J 8DD/	16dd\	.	.	.	.
.	16ff#X\JJ	.	.	.	.
=58	=58	=58	=58	=58	=58
8AA/L 8DD/	16ee\LL	.	2r	.	.
.	16dd\	.	.	.	.
8AA/ 8DD/	16bn\	.	.	.	.
.	16dd\JJ	.	.	.	.
8AA/ 8DD/	16cc#X\LL	.	.	.	.
.	16dd\	.	.	.	.
8AA/J 8DD/	16ee\	.	.	.	.
.	16aa\JJ	.	.	.	.
=59	=59	=59	=59	=59	=59
*	*^	*	*	*	*
8AA/L 8DD/	(>>8.ff#X/L	4ryy	.	2r	.	.
8AA/ 8DD/	.	.	.	.	.	.
.	16dd/k	.	.	.	.	.
8AA/ 8DD/	8.b-X/	4fn^\	.	.	.	.
8AA/J 8DD/	.	.	.	.	.	.
.	16ccn/Jk)	.	.	.	.	.
!!LO:LB:g=original
=60	=60	=60	=60	=60	=60	=60
*xywh-25:126,1932,3632,859	*xywh-25:126,1932,3632,859	*xywh-25:126,1932,3632,859	*	*xywh-25:181,1615,3541,396	*	*
8AA\L 8DD\	(>>8.a/L 8.f#X^>/	4ryy	.	2r	.	.
8AA\ 8DD\	.	.	.	.	.	.
.	16d/k	.	.	.	.	.
!	!	!LO:SIC:s=4Fn<	!	!	!	!
8AA\ 8DD\	8.B-X<^/	4Fn<^/	.	.	.	.
8AA\J 8DD\	.	.	.	.	.	.
.	16cn</Jk)	.	.	.	.	.
*	*v	*v	*	*	*	*
=61	=61	=61	=61	=61	=61
8AA\L 8DD\	16A</LL 16F#X</	.	2r	.	.
.	16A</	.	.	.	.
8AA\ 8DD\	16Bn</	.	.	.	.
.	16c#X</JJ	.	.	.	.
8AA\ 8DD\	16d/LL	.	.	.	.
.	16c#X/	.	.	.	.
8AA\J 8DD\	16d/	.	.	.	.
.	16f#X/JJ	.	.	.	.
=62	=62	=62	=62	=62	=62
8AA/L 8DD/	16e/LL	.	2r	.	.
.	16d/	.	.	.	.
8AA/ 8DD/	16Bn/	.	.	.	.
.	16d/JJ	.	.	.	.
8AA/ 8DD/	16c#X/LL	.	.	.	.
.	16d/	.	.	.	.
8AA/J 8DD/	16e/	.	.	.	.
.	16a/JJ	.	.	.	.
=63	=63	=63	=63	=63	=63
*	*^	*	*	*	*
8AA\L 8DD\	(>8.f#X^/L	4ryy	.	2r	.	.
8AA\ 8DD\	.	.	.	.	.	.
.	16d/k	.	.	.	.	.
8AA\ 8DD\	8.Bn^/	4Fn</	.	.	.	.
8AA\J 8DD\	.	.	.	.	.	.
.	16cn/Jk)	.	.	.	.	.
=64	=64	=64	=64	=64	=64	=64
!	!LO:TX:b:t=poco a poco rit.:mod=	!	!	!	!	!
8AA\L 8DD\	(>>8.A^>>/L	8F#X</	.	2r	.	.
8AA\ 8DD\	.	8ryy	.	.	.	.
!!LO:TX:a:i:t= :mod=poco a poco rit.
.	16dd/k	.	.	.	.	.
8AA\ 8DD\	8.b-^/	4fn^\	.	.	.	.
8AA\J 8DD\	.	.	.	.	.	.
.	16cc/Jk)	.	.	.	.	.
*	*v	*v	*	*	*	*
=65	=65	=65	=65	=65	=65
*	*	*^	*	*	*
!	!	!	!	!LO:TX:b:i:t=poco a poco rit.:dur=4q:ext=ud:problem=text with extension lines:mod=	!	!
8AA/ 8DD/	8a/ 8f#X/	.	.	(8.au/L	.	>
8r	8r	.	.	.	.	.
.	.	.	.	16dd/k	.	.
!	!LO:S:s=2:note:problem:note-level slur 	!LO:DY:rj	!LO:DY:b=2	!	!	!
[4D\	(4b-/ (4g/ (4c#X^>/	p	p	8.b-/	.	.
.	.	.	.	16cc/Jk	.	.
!!LO:PB:g=original
=66	=66	=66	=66	=66	=66	=66
*xywh-25:150,3078,3614,902	*xywh-25:150,3078,3614,902	*	*	*xywh-25:150,2694,3730,444	*	*
8D\]	8a/) 8f#X/) 8d/)	>	.	8.a/L	.	.
8r	8r	.	.	.	.	.
.	.	.	.	16dd/k	.	.
*clefG2	*	*	*	*	*	*
4ee-X/ [4d/	4ggg\ 4ccc#X\ 4gg\	.	pp	8.b-/	.	.
!	!	!	!	!	!	!LO:MO:mod=]]
.	.	]	.	16cc/Jk)	.	]
*	*	*v	*v	*	*	*
=67	=67	=67	=67	=67	=67
8dd/ 8d/]	8aaa\ 8ddd\ 8ff#X\	.	(4a/	.	.
*clefF4	*	*	*	*	*
8DD/L	8r	.	.	.	.
8AA/	4r	.	[4dd\	1	.
8D/J	.	.	.	.	.
=68	=68	=68	=68	=68	=68
8A\L	2r	.	4dd\])	.	.
8D\	.	.	.	.	.
8A\	.	.	(4dd\	.	.
8d\J	.	.	.	.	.
=69	=69	=69	=69	=69	=69
*Xtuplet	*	*	*Xtuplet	*	*
!	!	!	!LO:MO:mod=!LO&colon;TX&colon;a&colon;t=sul A&colon;dur=5q&colon;ext=ud&colon;problem=text with extension lines	!	!
!LO:SIC:s=12BBB-	!	!LO:MO:mod=.	!LO:TX:b:B:t=Sul A.:dur=5q:ext=ud:problem=text with extension lines	!	!
!!LO:TX:a:i:t= :mod=poco più tranquillo
12BBB-\L	(4.dd/ 4.d/	p	(12aa-X\L	3	.
!LO:SIC:s=(24A-LL	!	!LO:MO:null:mod=p	!	!	!
(24A-X\L	.	.	12gg\	.	.
24B-\	.	.	.	.	.
24A-\	.	.	12ff\J))	.	.
24B-\JJ	.	.	.	.	.
24A-\LL	.	.	([4aa-\	.	.
24B-\	.	.	.	.	.
24A-\	.	.	.	.	.
24B-\	8ee-X/ 8e-X/	.	.	.	.
24A-\	.	.	.	.	.
24B-\JJ)	.	.	.	.	.
=70	=70	=70	=70	=70	=70
8A-X\	8een\L 8en\	.	4aa-X\]	.	.
8r	8ff\ 8f\	.	.	.	.
8BB-/	8gg\ 8g\	.	8gg\L	3	.
8r	8aa-X\J 8a-X\)	.	8ff\J)	.	.
=71	=71	=71	=71	=71	=71
!LO:SIC:s=12BBB-	!	!	!	!	!
12BBB-\L	(8aan\ 8an\	.	(12gg\L	.	.
!LO:SIC:s=(24B-LL 24G	!	!	!LO:SIC:s=12ff	!	!
(24B-\L 24G\	.	.	12ff-X\	.	.
!	!	!LO:DY:rj:mod= 	!	!	!
24e-X\	4bb-\ 4b-\	p	.	.	.
24B-\ 24G\	.	.	12ee-X\J)	.	.
24e-\JJ	.	.	.	.	.
24B-\LL 24G\	.	.	[4b-\	2	.
24e-\	.	.	.	.	.
24B-\ 24G\	.	.	.	.	.
24e-\	8ccc\ 8cc\	.	.	.	.
24B-\ 24G\	.	.	.	.	.
24e-\JJ)	.	.	.	.	.
!!LO:LB:g=original
=72	=72	=72	=72	=72	=72
*xywh-25:138,4194,3724,902	*xywh-25:138,4194,3724,902	*	*xywh-25:156,3883,3584,347	*	*
8B-\ 8G\	8ddd\L 8dd\	.	8b-\]	.	.
8r	8eee-X\ 8ee-X\	.	8r	.	.
*	*	*	*	*below	*
8BB-/	8fff\ 8ff\	.	4b-'v\	3	.
8r	8ggg\J 8gg\)	.	.	.	.
=73	=73	=73	=73	=73	=73
12BBB-/	4.aaa-X\ 4.aa-X\	.	(12cc/L	.	.
(24A-X\LL 24E-X\	.	p	12b-/	.	.
24e-X\	.	.	.	.	.
24A-\ 24E-\	.	.	12a-X/J)	.	.
24e-\JJ	.	.	.	.	.
!	!	!	!LO:SIC:s=[(4ee-X	!	!
24A-\LL 24E-\	.	.	(4ee-X\	.	.
24e-\	.	.	.	.	.
24A-\ 24E-\	.	.	.	.	.
24e-\	[8eee-X\ [8ee-X\	.	.	.	.
24A-\ 24E-\	.	.	.	.	.
24e-\JJ)	.	.	.	.	.
=74	=74	=74	=74	=74	=74
!	!	!	!LO:SIC:s=4ee-]	!	!
8E-X\	8eee-X\] 8ee-X\]	.	4ee-X\	.	.
8r	(4ddd-X\ 4dd-X\	.	.	.	.
*	*	*	*	*above	*
8AA-X/	.	.	4ff\)	2	.
8r	8ccc-X\ 8cc-X\)	.	.	.	.
=75	=75	=75	=75	=75	=75
!LO:SIC:s=12EE-	!	!	!	!	!
12EE-X\L	8bb-\ 8b-\	.	[4gg\	3	.
!LO:SIC:s=(24B-LL 24G	!	!	!	!	!
(24B-\L 24G\	.	.	.	.	.
24e-X\	8r	.	.	.	.
24B-\ 24G\	.	.	.	.	.
24e-\JJ	.	.	.	.	.
24B-\LL 24G\	[4g/	.	12gg\L]	.	.
24e-\	.	.	.	.	.
24B-\ 24G\	.	.	12ff\	.	.
24e-\	.	.	.	.	.
24B-\ 24G\	.	.	12ee-X\J	.	.
24e-\JJ)	.	.	.	.	.
=76	=76	=76	=76	=76	=76
*	*Xtuplet	*	*	*	*
8B-\ 8G\	12g/L]	.	2bb-\	4	.
.	12f/	.	.	.	.
8r	.	.	.	.	.
.	12e-X/J	.	.	.	.
8EE-X'/	4b-\	.	.	.	.
8r	.	.	.	.	.
!!LO:PB:g=original
=77	=77	=77	=77	=77	=77
*xywh-26:462,856,3550,800	*xywh-26:462,856,3550,800	*	*xywh-26:480,373,3538,501	*	*
!LO:SIC:s=12FFF#	!LO:TX:t=Ob.Io.:mod=Ob. I	!	!	!	!
!LO:TX:t=P:problem=mixed beam	!LO:TX:b:i:t=appasionato.:mod=appasionato	!	!LO:TX:b:i:t=appasionato.:mod=appasionato	!	!
12FFF#X/L	(>12een/L 12a#X/ 12en/	.	(4.aa#X\	4	.
!	!	!LO:MO:mod=!null:null	!	!	!
!LO:SIC:s=(24eLL	!	!LO:DY:b=2	!	!	!
(24en\L	12dd#X/	p	.	.	.
24f#X\	.	.	.	.	.
24e\	12cc#X/J)	.	.	.	.
24f#\JJ	.	.	.	.	.
24e\LL	([4ee\	.	.	.	<
24f#\	.	.	.	.	.
24e\	.	.	.	.	.
24f#\	.	.	8gg#X\)	4	.
24e\	.	.	.	.	.
24f#\JJ)	.	.	.	.	.
=78	=78	=78	=78	=78	=78
8e'\	4ee\]	.	(4.ff#X\	.	.
8r	.	.	.	.	.
8F#X'\	8dd#X\L	<	.	.	.
8r	8cc#X\J)	.	8een\)	.	.
=79	=79	=79	=79	=79	=79
12FFF#X/	(12dd#X/L 12f#X/ 12d#X/	.	(4.dd#X\	.	.
(24Bn\LL 24F#X\	12cc#X/	.	.	.	.
24d#X\	.	.	.	.	.
24B\ 24F#\	12bn/J)	.	.	.	.
24d#\JJ	.	.	.	.	.
24B\LL 24F#\	[4f#X/	.	.	.	.
24d#\	.	.	.	.	.
24B\ 24F#\	.	.	.	.	.
24d#\	.	.	8ee\)	0	.
24B\ 24F#\	.	.	.	.	.
24d#\JJ)	.	.	.	.	.
=80	=80	=80	=80	=80	=80
8F#X\	8f#/]	.	(8ff#X\L	1	.
8r	8r	.	8gg#X\	.	.
!	!	!LO:MO:null:mod=[	!	!	!LO:MO:mod=.
8BBn/	4r	.	8aa#X\	1	[
!	!	!LO:MO:mod=.	!	!	!LO:MO:null:mod=[[
8r	.	[	8bbn\J)	.	.
=81	=81	=81	=81	=81	=81
!LO:TX:t=P:problem=mixed beam	!LO:TX:b:t=cre_scen_do:ext=ud:ext2=ud:problem=dynamics with extension lines:mod=	!LO:HP:t=cre_scen_do	!LO:TX:b:t=cre_scen_do:ext=ud:ext2=ud:problem=dynamics with extension lines:mod=	!	!LO:HP:t=cre_scen_do
!LO:SIC:s=12GGG	!	!	!	!	!
12GGG/L	(>12ffn/L 12bn/ 12fn/	<	(4.bb-\	.	<
!LO:SIC:s=(24fLL	!	!	!	!	!
(24fn\L	12ee/	.	.	.	.
24g\	.	.	.	.	.
24f\	12dd/J)	.	.	.	.
24g\JJ	.	.	.	.	.
24f\LL	[4ff\	.	.	.	.
24g\	.	.	.	.	.
24f\	.	.	.	.	.
24g\	.	.	8aan\)	3	.
24f\	.	.	.	.	.
24g\JJ)	.	.	.	.	.
!!LO:LB:g=original
=82	=82	=82	=82	=82	=82
*xywh-26:395,1986,3587,782	*xywh-26:395,1986,3587,782	*	*xywh-26:438,1632,3569,378	*	*
8f\	4ff\]	.	(4.ggn\	.	.
8r	.	.	.	.	.
8G/ 8GG/	(8ee\L	.	.	.	.
8r	8dd\J)	.	8ffn\)	.	.
=83	=83	=83	=83	=83	=83
*	*^	*	*	*	*
*	*	*^	*	*	*	*
4C/ 4CC^>/	2ee^/	(>>12b-X/L	2e^<<\	.	(8.een\L	.	.
!	!	!	!	!LO:MO:null:mod=[	!	!	!LO:MO:null:mod=[
.	.	12a/	.	.	.	.	.
.	.	12g/J)	.	.	.	.	.
.	.	.	.	.	16gg\Jk)	.	.
(24G\LL	.	[4b-/	.	.	([4gg\	.	.
24B-\	.	.	.	.	.	.	.
24G\	.	.	.	.	.	.	.
24B-\	.	.	.	.	.	.	.
24G\JJ)	.	.	.	.	.	.	.
24r	.	.	.	.	.	.	.
=84	=84	=84	=84	=84	=84	=84	=84
!	!	!LO:SIC:s=(>12b-X/L]	!	!	!	!	!
4C#X/ 4CC#X^>/	2ee-X^/	12b-X/L]	2e-X^<<\	.	8.gg\L]	.	.
.	.	12a/	.	.	.	.	.
!	!	!LO:SIC:s=12g/J)	!	!	!	!	!
.	.	12g/J	.	.	.	.	.
.	.	.	.	.	16bb-X\Jk)	.	.
(24G\LL	.	[4b-/	.	.	([4bb-\ [4b-\	.	.
24B-\	.	.	.	.	.	.	.
24G\	.	.	.	.	.	.	.
24B-\	.	.	.	.	.	.	.
24G\JJ)	.	.	.	.	.	.	.
24r	.	.	.	.	.	.	.
=85	=85	=85	=85	=85	=85	=85	=85
4D/ 4DD^>/	2dd^/	(>>12b-/L]	2d^<<\	.	8.bb-\]L 8.b-\]	.	.
.	.	12a/	.	.	.	.	.
.	.	12g/J)	.	.	.	.	.
.	.	.	.	.	16ggg\Jk 16gg\)	.	.
(24G\LL	.	[4b-/	.	.	[4ggg\ [4gg\	.	.
24B-\	.	.	.	.	.	.	.
24G\	.	.	.	.	.	.	.
24B-\	.	.	.	.	.	.	.
24G\JJ)	.	.	.	.	.	.	.
24r	.	.	.	.	.	.	.
=86	=86	=86	=86	=86	=86	=86	=86
4E-X/ 4EE-X^>/	2cc#X^/	(>>12b-/L]	2c#X^<<\	.	8ggg\] 8gg\]	.	.
.	.	12a/	.	.	.	.	.
.	.	.	.	.	8r	.	.
.	.	12g/J)	.	.	.	.	.
(24G\LL	.	4b-/	.	.	4ggg\ 4gg'v\	.	.
24B-\	.	.	.	.	.	.	.
24G\	.	.	.	.	.	.	.
24B-\	.	.	.	.	.	.	.
24G\JJ)	.	.	.	.	.	.	.
24r	.	.	.	[[	.	.	[[
*	*v	*v	*v	*	*	*	*
!!LO:LB:g=original
=87	=87	=87	=87	=87	=87
*xywh-26:438,3068,3648,770	*xywh-26:438,3068,3648,770	*	*xywh-26:425,2720,3642,415	*	*
8D/ 8DD/	8dd/ 8b-/ 8g/ 8d/	f	(8.ggg\L 8.gg\	.	ff
8r	8r	.	.	.	.
!	!	!	!LO:MO:mod=!LO&colon;TX&colon;b&colon;i&colon;t=molto appasionato	!	!
!	!	!	!LO:TX:b:i:t=molto appasionato.:dur=12q:ext=ud:problem=text with extension lines	!	!
.	.	.	16ddd\Jk 16dd\)	.	.
*tremolo	*tremolo	*	*	*	*
32D\LLL	32d/LLL	f	4ddd\ 4dd\	.	.
32Bn\	32g/	.	.	.	.
32D\	32d/	.	.	.	.
32B\	32g/	.	.	.	.
32D\	32d/	.	.	.	.
32B\	32g/	.	.	.	.
32D\	32d/	.	.	.	.
32Bn\JJJ	32g/JJJ	.	.	.	.
=88	=88	=88	=88	=88	=88
(32D\LLL	(32d/LLL	.	8r	.	.
32Bn\	32g/	.	.	.	.
32D\	32d/	.	.	.	.
32B\	32g/	.	.	.	.
!	!	!	!LO:TX:a:t=du talon.:mod=	!	!
!	!	!	!LO:SIC:s=8ddv	!	!
32D\	32d/	.	8dd'v\	3	.
32B\	32g/	.	.	.	.
32D\	32d/	.	.	.	.
32Bn\	32g/	.	.	.	.
32D\	32d/	.	8cc\L	.	.
32B\	32g/	.	.	.	.
32D\	32d/	.	.	.	.
32B\	32g/	.	.	.	.
32D\	32d/	.	8bn\J	.	.
32B\	32g/	.	.	.	.
32D\	32d/	.	.	.	.
32Bn\JJJ)	32g/JJJ)	.	.	.	.
=89	=89	=89	=89	=89	=89
(32D\LLL	(32f/LLL	.	(4dd\	.	.
32Bn\	32g#X/	.	.	.	.
32D\	32f/	.	.	.	.
32B\	32g#/	.	.	.	.
32D\	32f/	.	.	.	.
32B\	32g#/	.	.	.	.
32D\	32f/	.	.	.	.
32B\	32g#/	.	.	.	.
32D\	32f/	.	12ff\L)	3	.
32B\	32g#/	.	.	.	.
32D\	32f/	.	.	.	.
.	.	.	((12ee\	.	.
32B\	32g#/	.	.	.	.
32D\	32f/	.	.	.	.
32B\	32g#/	.	.	.	.
.	.	.	12dd\J)	1	.
32D\	32f/	.	.	.	.
32Bn\JJJ)	32g#X/JJJ)	.	.	.	.
=90	=90	=90	=90	=90	=90
(32D\LLL	(32f/LLL	.	(12dd\L	3	.
32Bn\	32g#X/	.	.	.	.
32D\	32f/	.	.	.	.
.	.	.	12cc\	.	.
32B\	32g#/	.	.	.	.
32D\	32f/	.	.	.	.
32B\	32g#/	.	.	.	.
.	.	.	12bn\J)	.	.
32D\	32f/	.	.	.	.
32B\	32g#/	.	.	.	.
32D\	32f/	.	(12b\L	3	.
32B\	32g#/	.	.	.	.
32D\	32f/	.	.	.	.
.	.	.	12a\	.	.
32B\	32g#/	.	.	.	.
32D\	32f/	.	.	.	.
32B\	32g#/	.	.	.	.
.	.	.	12g#X\J))	.	.
32D\	32f/	.	.	.	.
32Bn\JJJ)	32g#X/JJJ)	.	.	.	.
=91	=91	=91	=91	=91	=91
(32E\LLL 32D\	(8.aa\L 8.a\	.	((12g#X\L	.	.
32c\ 32A\	.	.	.	.	.
32E\ 32D\	.	.	.	.	.
.	.	.	12a\	.	.
32c\ 32A\	.	.	.	.	.
32E\ 32D\	.	.	.	.	.
32c\ 32A\	.	.	.	.	.
.	.	.	12bn\J)	.	.
32E\ 32D\	16ee\Jk)	.	.	.	.
32c\ 32A\	.	.	.	.	.
32E\ 32D\	[4ee\	.	8.dd\L	.	.
32c\ 32A\	.	.	.	.	.
32E\ 32D\	.	.	.	.	.
32c\ 32A\	.	.	.	.	.
32E\ 32D\	.	.	.	.	.
32c\ 32A\	.	.	.	.	.
32E\ 32D\	.	.	16cc\Jk)	.	.
32c\JJJ 32A\)	.	.	.	.	.
=92	=92	=92	=92	=92	=92
(32E\LLL 32D\	4ee\]	.	(12g#X/L	.	.
32c\ 32A\	.	.	.	.	.
32E\ 32D\	.	.	.	.	.
.	.	.	12a/)	.	.
32c\ 32A\	.	.	.	.	.
32E\ 32D\	.	.	.	.	.
32c\ 32A\	.	.	.	.	.
*	*	*	*	*below	*
.	.	.	12cc^>/J	3	.
32E\ 32D\	.	.	.	.	.
32c\JJJ 32A\)	.	.	.	.	.
.	.	.	(>>(8qcc/	.	.
*	*	*	*	*above	*
(32E\LLL 32D\	4gg\ 4g\	.	8.ff#X\L)	3	.
32c#X\ 32B-X\	.	.	.	.	.
32E\ 32D\	.	.	.	.	.
32c#\ 32B-\	.	.	.	.	.
32E\ 32D\	.	.	.	.	.
32c#\ 32B-\	.	.	.	.	.
32E\ 32D\	.	.	16ee\Jk)	.	.
32c#X\JJJ 32B-X\)	.	.	.	.	.
=93	=93	=93	=93	=93	=93
8d\ 8B-\ 8G\ 8D\	8bbn\ 8bn\	.	(8dd\L	.	.
8r	8r	.	8gg\ 8g\)	.	.
(32D\LLL	(32Bn/LLL	.	8ff#X\ 8f#X\	.	.
32G\	32d/	.	.	.	.
32D\	32B/	.	.	.	.
32G\	32d/	.	.	.	.
32D\	32B/	.	8ffn\J 8fn\	.	.
32G\	32d/	.	.	.	.
32D\	32B/	.	.	.	.
32G\JJJ)	32d/JJJ)	.	.	.	.
!!LO:PB:g=original
=94	=94	=94	=94	=94	=94
*xywh-26:395,4205,3618,886	*xywh-26:395,4205,3618,886	*	*xywh-26:413,3795,3581,452	*	*
*tremolo	*tremolo	*	*	*	*
32D\LLL	(32Bn/LLL	.	8ee\L 8e\	.	.
32G\	32d/	.	.	.	.
32D\	32B/	.	.	.	.
32G\	32d/	.	.	.	.
32D\	32B/	.	8ee-X\J 8e-X\	.	.
32G\	32d/	.	.	.	.
32D\	32B/	.	.	.	.
32G\	32d/	.	.	.	.
!	!	!	!LO:SIC:s=([4dd [4d	!	!
32D\	32B/	.	([4dd/ 4d/	.	.
32G\	32d/	.	.	.	.
32D\	32B/	.	.	.	.
32G\	32d/	.	.	.	.
32D\	32B/	.	.	.	.
32G\	32d/	.	.	.	.
32D\	32B/	.	.	.	.
32G\JJJ	32d/JJJ)	.	.	.	.
=95	=95	=95	=95	=95	=95
*	*Xtremolo	*	*Xtuplet	*	*
!	!	!	!LO:SIC:s=12dd]L 12d]	!	!
32G\LLL 32D\	2dd/ 2bn/ 2g/ 2d/	.	12dd\]L 12d\	.	.
32Bn\	.	.	.	.	.
32G\ 32D\	.	.	.	.	.
.	.	.	24ggg\k 24gg\)	.	.
32B\	.	.	.	.	.
32G\ 32D\	.	.	24r	.	.
32B\	.	.	.	.	.
.	.	.	(12fff#X\J 12ff#X^\	.	.
32G\ 32D\	.	.	.	.	.
32B\	.	.	.	.	.
32G\ 32D\	.	.	12fffn\L 12ffn^\	.	.
32B\	.	.	.	.	.
32G\ 32D\	.	.	.	.	.
.	.	.	12eeen\ 12een^\	.	.
32B\	.	.	.	.	.
32G\ 32D\	.	.	.	.	.
32B\	.	.	.	.	.
.	.	.	12eee-X\J 12ee-X^\)	.	.
32G\ 32D\	.	.	.	.	.
32Bn\JJJ	.	.	.	.	.
=96	=96	=96	=96	=96	=96
!	!	!	!LO:TX:t=P:problem=mixed beam	!	!
32G\LLL 32D\	4gg\ 4dd\ 4bn\ 4g\	.	(8dddv\L	.	.
32Bn\	.	.	.	.	.
32G\ 32D\	.	.	.	.	.
32B\	.	.	.	.	.
!	!	!	!LO:MO:mod=!LO&colon;TX&colon;a&colon;t=sul G&colon;dur=3qe&colon;ext=ud&colon;problem=text with extension lines	!	!
!	!	!	!LO:TX:a:B:t=Sul G.:dur=3qe:ext=ud:problem=text with extension lines	!	!
.	.	.	(>>8qG/	.	.
!	!	!	!	!LO:MO:mod=*null:null	!
*	*	*	*	*below	*
!	!	!	!	!LO:MO:mod=3 0	!
32G\ 32D\	.	.	8g/J))	0 3	.
32B\	.	.	.	.	.
32G\ 32D\	.	.	.	.	.
32B\	.	.	.	.	.
!	!	!	!LO:MO:mod=!LO&colon;TX&colon;b&colon;i&colon;t=du talon	!	!
!	!	!	!LO:TX:b:t=du talon.:dur=2q:ext=ud:problem=text with extension lines	!	!
32G\ 32D\	4bbnX\ 4dd\ 4b\	.	16f#X/LL	.	.
32B\	.	.	.	.	.
32G\ 32D\	.	.	16fn/	.	.
32B\	.	.	.	.	.
32G\ 32D\	.	.	16en/	.	.
32B\	.	.	.	.	.
32G\ 32D\	.	.	16e-X/JJ	.	.
32Bn\JJJ	.	.	.	.	.
*Xtremolo	*	*	*	*	*
=97	=97	=97	=97	=97	=97
8d\ 8Bn\ 8G\ 8D\	8ddd\ 8bbn\ 8gg\ 8dd\	.	16d/LL	2	.
.	.	.	16c#X/	1	.
8r	8r	.	16cn/	3	.
.	.	.	16Bn/JJ	.	.
.	.	.	(16qqB/L	.	.
.	.	.	16qqd/J)	.	.
!	!	!	!LO:TX:a:i:t=molto vibrato.:mod=molto vibrato	!	!
4r	4r	.	(8.c/L	.	.
.	.	.	16B/Jk)	.	.
=98	=98	=98	=98	=98	=98
4r	2dd/ 2f#X/ 2c/	.	(4.Bn/	.	.
4D/ 4DD/	.	.	.	.	>
.	.	.	8A/)	.	]]
=99||	=99||	=99||	=99||	=99||	=99||
*k[f#]	*k[f#]	*	*k[f#]	*	*
*G:	*G:	*	*G:	*	*
!	!	!	!	!	!LO:DY:rj
8D/ 8GG/	8g/ 8B/	.	16G'/LL	.	fp
!	!	!	!LO:TX:b:i:t=saltando.:mod=saltando	!	!
.	.	.	16d'/	.	.
4D/ 4GG/	4d/ 4B/	p	16e'/	.	.
.	.	.	16f#'/JJ	.	.
.	.	.	16g'/LL	.	.
.	.	.	16f#'/	.	.
8D/ 8GG/	8d/ 8B/	.	16g'/	.	.
.	.	.	16b'/JJ	.	.
=100	=100	=100	=100	=100	=100
*	*	*	*	*above	*
8D/ 8GG/	8d/ 8B/	.	16dd'\LL	3	.
.	.	.	16dd'\	1	.
4D/ 4GG/	4d/ 4B/	.	16ee'\	2	.
.	.	.	16ff#'\JJ	1	.
.	.	.	16gg'\LL	.	.
.	.	.	16ff#'\	.	.
8D/ 8GG/	8d/ 8B/	.	16gg'\	.	.
.	.	.	16bb'\JJ	.	.
!!LO:PB:g=original
=101	=101	=101	=101	=101	=101
*xywh-27:150,963,3584,700	*xywh-27:150,963,3584,700	*	*xywh-27:181,304,3657,713	*	*
8D/ 8GG/	8d/ 8B/	.	16ddd'\LL	2	.
.	.	.	16ccc#X'\	.	.
4D/ 4GG/	4d/ 4B/	.	16eee'\	.	.
.	.	.	16ddd'\JJ	.	.
.	.	.	16ggg'\LL	2	.
.	.	.	16fff#'\	.	.
[8D/ [8GG/	[8d/ [8B/	.	16aaa'\	.	.
.	.	.	16ggg'\JJ	.	.
=102	=102	=102	=102	=102	=102
8D/] 8GG/]	8d/] 8B/]	.	16bbb'\LL	4	.
.	.	.	16aaa'\	.	.
4D/ 4GG/	4d/ 4B/	.	16ggg'\	.	.
.	.	.	16fff#'\JJ	.	.
.	.	.	16eee'\LL	.	.
.	.	.	16ddd'\	.	.
8D#X/ 8GG/	8d#X/ 8B/	.	16cccn'\	.	.
.	.	.	16bb'\JJ	.	.
=103	=103	=103	=103	=103	=103
8E/ 8GG/	8e/ 8c/ 8A/	.	16ddd'\LL	.	.
.	.	.	16ccc'\	.	.
4E/ 4GG/	4e/ 4c/ 4A/	.	16ee^\	1	<
.	.	.	16eee'\JJ	.	.
.	.	.	16ddd'\LL	.	.
.	.	.	16ccc'\	.	.
[8E/ [8GG/	[8e/ [8c/ [8A/	.	16cc'\	1	.
.	.	.	16ccc'\JJ	.	.
=104	=104	=104	=104	=104	=104
8E/] 8GG/]	8e/] 8c/] 8A/]	.	16bb'\LL	.	.
.	.	.	16aa'\	.	.
4E/ 4GG/	4e/ 4c/ 4A/	.	16a'\	0	.
.	.	.	16aa'\JJ	.	.
.	.	.	16gg'\LL	.	.
.	.	.	16ff#'\	.	.
8E/ 8GG/	8fn/ 8c/ 8A/	.	16dd'\	.	.
!	!	!	!	!	!LO:MO:mod=[[
.	.	.	16cc#X'\JJ	.	[
=105	=105	=105	=105	=105	=105
8D/ 8GG/	8f#X/ 8c/ 8A/	.	16ee\LL	.	.
.	.	.	16dd\	.	.
4D/ 4GG/	4f#/ 4c/ 4A/	.	16cccn\	4	.
.	.	.	16aa\JJ	.	.
.	.	.	16ff#\LL	.	.
.	.	.	16dd\	.	.
8D/ 8GG/	8f#/ 8c/ 8A/	.	16cc#X\	.	.
.	.	.	16dd\JJ	.	.
=106	=106	=106	=106	=106	=106
8D/ 8GG/	8f#/ 8c/ 8A/	.	16ee\LL	.	.
.	.	.	16dd\	.	.
8r	8r	.	16ccn\	.	.
.	.	.	16a\JJ	.	.
8D/ 8GG/	8dd/ 8f#/ 8c/	.	16f#/LL	.	.
.	.	.	16d/	.	.
8r	8r	.	16c/	.	.
.	.	.	16A/JJ	.	.
!!LO:LB:g=original
=107	=107	=107	=107	=107	=107
*xywh-27:169,2030,3389,670	*xywh-27:169,2030,3389,670	*	*xywh-27:163,1676,3565,402	*	*
8D/ 8GG/	8g/ 8B/	.	16G/LL	.	.
.	.	.	16d/	.	.
4D/ 4GG/	4d/ 4B/	.	16e/	.	.
.	.	.	16f#/JJ	.	.
.	.	.	16g/LL	.	.
.	.	.	16f#/	.	.
8D/ 8GG/	8d/ 8B/	.	16g/	.	.
.	.	.	16b/JJ	.	.
=108	=108	=108	=108	=108	=108
8D/ 8GG/	8d/ 8B/	.	16dd\LL	3	.
.	.	.	16dd\	1	.
4D/ 4GG/	4d/ 4B/	.	16ee\	.	.
.	.	.	16ff#\JJ	1	.
.	.	.	16gg\LL	.	.
.	.	.	16ff#\	.	.
8D/ 8GG/	[8d/ [8B/	.	16gg\	.	.
.	.	.	16bb\JJ	.	.
=109	=109	=109	=109	=109	=109
8D/ 8GG/	8d/] 8B/]	.	16ddd\LL	.	.
.	.	.	16ccc#X\	.	.
4G\	4d/ 4B/	.	16eee\	.	.
.	.	.	16ddd\JJ	.	.
.	.	.	16ggg\LL	2	.
.	.	.	16fff#\	.	.
[8G\	[8d#X/ [8B/	.	16aaa\	.	.
.	.	.	16ggg\JJ	.	.
=110	=110	=110	=110	=110	=110
8G\]	8d#/] 8B/]	.	16bbb\LL	4	.
.	.	.	16aaa\	3	.
4G\	4e/ 4B/	.	16ggg\	.	.
.	.	.	16fff#\JJ	.	.
.	.	.	16eee\LL	4	.
.	.	.	16ddd\	.	.
8G\	8e#X/ 8B/	.	16ccc#X\	.	.
.	.	.	16bb\JJ	.	.
=111	=111	=111	=111	=111	=111
8F#\	8f#/ 8en/ 8B/	.	16bb\LL	2	.
.	.	.	16aa#X\	.	.
4F#\	4f#/ 4e/ 4B/	.	16ee\	0	.
.	.	.	16ggg\JJ	4	.
.	.	.	16fff#\LL	.	.
.	.	.	16eee\	.	.
[8F#\	[8f#/ [8e/ [8B/	.	16ee\	.	.
.	.	.	16eee\JJ	.	.
=112	=112	=112	=112	=112	=112
8F#\]	8f#/] 8e/] 8B/]	.	16ddd\LL	.	.
.	.	.	16ccc#X\	.	.
4F#\	4f#/ 4e/ 4B/	.	16ee\	.	.
.	.	.	16ccc#\JJ	.	.
.	.	.	16bb\LL	.	.
.	.	.	16aa#X\	.	.
8F#\	8f#/ 8e/ 8B/	.	16ee\	.	.
.	.	.	16ff#\JJ	.	.
!!LO:LB:g=original
=113	=113	=113	=113	=113	=113
*xywh-27:181,3139,3401,694	*xywh-27:181,3139,3401,694	*	*xywh-27:199,2798,3626,390	*	*
8F#\	8f#/ 8e/ 8A#X/	.	16gg\LL	.	.
.	.	.	16ff#\	.	.
4F#\	4f#/ 4e/ 4A#/	.	16aan\	.	.
.	.	.	16gg\JJ	.	.
.	.	.	16ff#\LL	.	.
.	.	.	16ee\	.	.
8F#\	8f#/ 8e/ 8A#/	.	16dd\	.	.
.	.	.	16cc#X\JJ	.	.
=114	=114	=114	=114	=114	=114
8F#\	8f#/ 8e/ 8A#X/	.	16b/LL	.	.
.	.	.	16a#X/	.	.
8r	8r	.	16cc#X/	.	.
.	.	.	16g/JJ	.	.
8FF#/	8a#X/ 8f#/ 8e/	.	16f#/LL	.	.
.	.	.	16e/	.	.
8r	8r	.	16d/	.	.
.	.	.	16c#X/JJ	.	.
=115	=115	=115	=115	=115	=115
[2BB/	8b/ 8f#/ 8d/	.	16B/LL	.	.
.	.	.	16f#/	.	.
!	!	!	!	!LO:MO:mod=*null:null	!
*	*	*	*	*below	*
.	4f#/ 4d/	.	16g#X/	1	.
.	.	.	16a#X/JJ	.	.
.	.	.	16b\LL	.	.
.	.	.	16a#\	.	.
.	8f#/ 8d/	.	16b\	.	.
.	.	.	16dd\JJ	.	.
=116	=116	=116	=116	=116	=116
2BB/_	8f#/ 8d/	.	16ff#\LL	.	.
.	.	.	16ff#\	.	.
.	4b/ 4f#/ 4d/	.	16gg#X\	.	.
.	.	.	16aa#X\JJ	.	.
.	.	.	16bb\LL	.	.
.	.	.	16aa#\	.	.
.	8b/ 8f#/ 8d/	.	16ccc#X\	.	.
.	.	.	16bb\JJ	.	.
=117	=117	=117	=117	=117	=117
*	*	*	*8va	*above	*
2BB/_	8b/ 8f#/ 8d/	.	16ddd\LL	2	.
.	.	.	16ccc#X\	.	.
.	4dd/ 4b/ 4f#/	.	16eee\	.	.
.	.	.	16ddd\JJ	.	.
.	.	.	16fff#\LL	2	.
.	.	.	16eee#X\	.	.
.	8dd/ 8b/ 8f#/	.	16gggn\	.	.
.	.	.	16fff#\JJ	.	.
=118	=118	=118	=118	=118	=118
8BB/]	8dd/ 8b/ 8f#/	.	16bbb\LL	.	.
.	.	.	16aaa#X\	.	.
8r	8r	.	16cccc#X\	.	.
.	.	.	16bbb\JJ	.	.
8Fn\ 8BB'\	8b/ 8d'/	.	16dddd\LL	.	.
.	.	.	16cccc#\	.	.
8r	8r	.	16bbb\	.	.
.	.	.	16aaan\JJ	.	.
!!LO:PB:g=original
=119	=119	=119	=119	=119	=119
*xywh-27:163,4188,3651,883	*xywh-27:163,4188,3651,883	*	*xywh-27:175,3804,3553,438	*	*
8E'\L	8g#X/L 8e'/	.	16ggg#X\LL	.	.
.	.	.	16fff##X\	.	.
8F#\J 8E'\	8a/J 8e'/	.	16aaan\	.	.
.	.	.	16ggg#\JJ	.	.
[4G#X\ [4E\	[4b/ [4e/	.	16bbb\LL	.	.
.	.	.	16aaa\	.	.
.	.	.	16ggg#\	.	.
!	!	!	!LO:N:acc=n#	!	!
.	.	.	16fff#X\JJ	.	.
*	*	*	*X8va	*	*
=120	=120	=120	=120	=120	=120
8G#\]L 8E\]	8b/]L 8e/]	.	16eee\LL	.	.
.	.	.	16ddd#X\	.	.
8A#X\J 8E'\	8cc#X/J 8e'/	.	16fff#\	.	.
.	.	.	16eee\JJ	.	.
[4B\ [4E\	[4dd/ [4e/	.	16dddn\LL	.	.
.	.	.	16ccc#X\	3	.
.	.	.	16bb\	2	.
.	.	.	16aa\JJ	.	.
=121	=121	=121	=121	=121	=121
8B\] 8E\]	8dd/] 8e/]	.	16ccc#X\LL	.	.
.	.	.	16bb\	.	.
4B\ 4E\	4dd/ 4e/	.	16ddd\	.	.
.	.	.	16ccc#\JJ	.	.
.	.	.	16bb\LL	.	.
.	.	.	16aa\	.	.
8A\ 8E\	8dd#X/ 8e/	.	16gg#X\	4	.
.	.	.	16ff#\JJ	.	.
=122	=122	=122	=122	=122	=122
8G#X\ 8E\	8ee/ 8e/	.	16ee\LL	2	.
.	.	.	16dd#X\	.	.
8r	8r	.	16ddn\	3	.
.	.	.	16b\JJ	.	.
8E\	8g#X/ 8e/ 8d/	.	16g#X/LL	.	.
.	.	.	16e/	.	.
8r	8r	.	16d/	.	.
.	.	.	16B/JJ	.	.
=123	=123	=123	=123	=123	=123
!	!	!LO:MO:mod=!null:null	!	!	!
!	!	!LO:DY:b=2	!	!	!
16AAA/LL	8a/ 8e/ 8c#X/	p	16A/LL	.	.
16AA/	.	.	16A/	.	.
16AAA/	8r	.	16B/	.	.
16AA/JJ	.	.	16c#X/JJ	.	.
16AAA/LL	4r	.	16d/LL	.	.
16AA/	.	.	16B/	.	.
16AAA/	.	.	16d/	.	.
16AA/JJ	.	.	16fnX/JJ	.	.
=124	=124	=124	=124	=124	=124
*tremolo	*	*	*	*	*
16AAA/LL	2r	.	16e/LL	.	.
16AA/	.	.	16d/	.	.
16AAA/	.	.	16B/	.	.
16AA/	.	.	16d/JJ	.	.
16AAA/	.	.	16c#X/LL	.	.
16AA/	.	.	16e/	.	.
16AAA/	.	.	16g/	.	.
*	*	*	*	*below	*
16AA/JJ	.	.	16b-X/JJ	4	.
!!LO:PB:g=original
=125	=125	=125	=125	=125	=125
*xywh-28:511,892,3556,757	*xywh-28:511,892,3556,757	*	*xywh-28:560,409,3434,519	*	*
*tremolo	*	*	*	*above	*
16AAA/LL	[2a/ [2A/	.	16a\LL	0	.
16AA/	.	.	16a\	.	.
16AAA/	.	.	16bn\	.	.
16AA/	.	.	16cc#X\JJ	.	.
16AAA/	.	.	16dd\LL	.	.
16AA/	.	.	16b\	.	.
16AAA/	.	.	16dd\	.	.
16AA/JJ	.	.	16ff#\JJ	4	.
=126	=126	=126	=126	=126	=126
16AAA/LL	2a/] 2A/]	.	16ee\LL	.	.
16AA/	.	.	16dd\	.	.
16AAA/	.	.	16b\	.	.
16AA/	.	.	16dd\JJ	.	.
16AAA/	.	.	16cc#X\LL	.	.
16AA/	.	.	16ee\	.	.
16AAA/	.	.	16gg\	.	.
16AA/JJ	.	.	16bb-X\JJ	.	.
=127	=127	=127	=127	=127	=127
16AAA/LL	[2aa\ [2a\	.	16aa\LL	3	.
16AA/	.	.	16aa\	1	.
16AAA/	.	.	16bbn\	.	.
16AA/	.	.	16ccc#X\JJ	.	.
16AAA/	.	.	16ddd\LL	.	.
16AA/	.	.	16bb\	.	.
16AAA/	.	.	16ddd\	2	.
16AA/JJ	.	.	16fffn\JJ	.	.
=128	=128	=128	=128	=128	=128
16AAA/LL	2aa\_ 2a\_	.	16eee\LL	.	.
16AA/	.	.	16ccc#X\	.	.
16AAA/	.	.	16ddd\	.	.
16AA/	.	.	16eee\JJ	.	.
16AAA/	.	.	16fffn\LL	.	.
16AA/	.	.	16ddd\	.	.
16AAA/	.	.	16fff\	2	.
16AA/JJ	.	.	16aaa\JJ	.	.
=129	=129	=129	=129	=129	=129
*	*	*	*8va	*	*
16AAA/LL	2aa\_ 2a\_	.	16ggg\LL	.	.
16AA/	.	.	16eee\	.	.
16AAA/	.	.	16fffn\	.	.
16AA/	.	.	16ggg\JJ	.	.
16AAA/	.	.	16aaa\LL	.	.
16AA/	.	.	16fff\	.	.
16AAA/	.	.	16aaa\	.	.
16AA/JJ	.	.	16ccccnX\JJ	.	.
=130	=130	=130	=130	=130	=130
16AAA/LL	2aa\] 2a\]	.	16bbb-X\LL	.	.
16AA/	.	.	16ggg\	.	.
16AAA/	.	.	16eee\	.	.
16AA/	.	.	16fffn\JJ	.	.
16AAA/	.	.	16ggg\LL	.	.
16AA/	.	.	16eee\	.	.
16AAA/	.	.	16ccc#X\	1	.
16AA/JJ	.	.	16ddd\JJ	.	.
*Xtremolo	*	*	*X8va	*	*
!!LO:LB:g=original
=131	=131	=131	=131	=131	=131
*xywh-28:377,2005,3679,702	*xywh-28:377,2005,3679,702	*	*xywh-28:474,1626,3563,482	*	*
8AA/ 8AAA/	8bb-X\ 8gg\ 8ee\ 8cc#X\	f	16eee\LL	.	.
.	.	.	16ccc#X\	.	.
8r	8r	.	16gg\	.	.
.	.	.	16aa\JJ	.	.
4r	4r	.	16bb-X\LL	.	>
.	.	.	16gg\	2	.
.	.	.	16ee\	.	.
.	.	.	16ffn\JJ	.	.
=132	=132	=132	=132	=132	=132
2r	2r	.	16gg\LL	.	.
.	.	.	16ee\	.	.
.	.	.	16cc#X\	.	.
.	.	.	16dd\JJ	.	.
.	.	.	16ee\LL	.	.
.	.	.	16cc#\	.	.
.	.	.	16g\	.	.
.	.	.	16a\JJ	.	.
=133	=133	=133	=133	=133	=133
2r	2r	.	16b-X/LL	.	.
.	.	.	16g/	.	.
.	.	.	16e/	.	.
.	.	.	16g/JJ	.	.
.	.	.	16fn/LL	.	.
.	.	.	16d/	.	.
.	.	.	16B-X/	.	.
!	!	!	!	!	!LO:MO:mod=]]
.	.	.	16c/JJ	.	]
=134	=134	=134	=134	=134	=134
!	!	!	!LO:MO:mod=!LO&colon;TX&colon;a&colon;t=sul G&colon;dur=16q&colon;ext=ud&colon;problem=text with extension lines	!	!
!	!	!	!LO:TX:b:B:t=Sul G.:dur=16q:ext=ud:problem=text with extension lines	!	!
2r	2r	.	[2A/	.	.
=135	=135	=135	=135	=135	=135
2r	2r	.	16A/LL]	.	.
.	.	.	(16g/	3	.
.	.	.	16e/)	1	.
.	.	.	16g/JJ	.	.
.	.	.	16fn/LL	2	.
.	.	.	16d/	2	.
.	.	.	16B-X/	.	.
.	.	.	16c/JJ	.	.
=136	=136	=136	=136	=136	=136
2r	2r	.	(2A/	.	.
=137	=137	=137	=137	=137	=137
2r	2r	.	8.fn^/L	.	.
.	.	.	16d/k	.	.
.	.	.	8.B-X^/	.	.
.	.	.	16c/Jk)	.	.
!!LO:LB:g=original
=138	=138	=138	=138	=138	=138
!!LO:TX:a:i:t= :mod=poco rit. e dim.
*xywh-28:383,3062,3648,825	*xywh-28:383,3062,3648,825	*	*xywh-28:413,2652,3605,464	*	*
!	!	!	!LO:TX:a:t=poco rit. e dim.:dur=6q:ext=ud:problem=text with extension lines:mod=	!	!
2r	2r	.	(8.A/L	.	.
.	.	.	16d/k	.	.
.	.	.	8.B-X/	.	.
.	.	.	16c/Jk	.	.
=139	=139	=139	=139	=139	=139
4r	4r	.	8.A/L	.	.
.	.	.	16d/k	.	.
*tremolo	*	*	*	*	*
!	!	!LO:MO:mod=!null:null	!	!	!
!	!	!LO:DY:b=2:rj	!	!	!
32AAA\LLL	4G#X</ 4Fn</ 4D<^>/	p	8.B-X/	.	.
32AA\	.	.	.	.	.
32AAA\	.	.	.	.	.
32AA\	.	.	.	.	.
32AAA\	.	.	.	.	.
32AA\	.	.	.	.	.
32AAA\	.	.	16c#X/Jk)	.	.
32AA\JJJ	.	.	.	.	.
=140	=140	=140	=140	=140	=140
!	!	!	!LO:SIC:s=([2A	!	!
32AAA\LLL	[2A</ [>2E</ [>2C#X</	.	[2A/	.	.
32AA\	.	.	.	.	.
32AAA\	.	.	.	.	.
32AA\	.	.	.	.	.
32AAA\	.	.	.	.	.
32AA\	.	.	.	.	.
32AAA\	.	.	.	.	.
32AA\	.	.	.	.	.
32AAA\	.	.	.	.	.
32AA\	.	.	.	.	.
32AAA\	.	.	.	.	.
32AA\	.	.	.	.	.
32AAA\	.	.	.	.	.
32AA\	.	.	.	.	.
32AAA\	.	.	.	.	.
32AA\JJJ	.	.	.	.	.
=141	=141	=141	=141	=141	=141
!	!	!	!LO:SIC:s=2A]	!	!
32AAA\LLL	8A</] 8E</] 8C#</]	<	(2A/]	.	.
32AA\	.	.	.	.	.
32AAA\	.	.	.	.	.
32AA\	.	.	.	.	.
32AAA\	8r	.	.	.	.
32AA\	.	.	.	.	.
32AAA\	.	.	.	.	.
32AA\	.	.	.	.	.
32AAA\	4r	[[	.	.	.
32AA\	.	.	.	.	.
32AAA\	.	.	.	.	.
32AA\	.	.	.	.	.
32AAA\	.	.	.	.	.
32AA\	.	.	.	.	.
32AAA\	.	.	.	.	.
32AA\JJJ	.	.	.	.	.
*Xtremolo	*	*	*	*	*
=142||	=142||	=142||	=142||	=142||	=142||
*k[f#c#]	*k[f#c#]	*	*k[f#c#]	*	*
*D:	*D:	*	*D:	*	*
8r	8a/ 8g/ 8c#/	f	16bb\)	o 3	f
.	.	.	16r	.	.
8AA'\L	4a/ 4g/ 4c#/	p	8r	.	.
8E'\	.	.	[4ee/ [4g/	.	.
8A'\J	8a/ 8g/ 8c#/	.	.	.	.
=143	=143	=143	=143	=143	=143
8e'\	8a/ 8g/	.	8ee/]L 8g/]	.	.
.	.	.	(16qqeeL 16qqg/	.	.
.	.	.	16qqff#J 16qqg/)	.	.
8r	4a/ 4g/ 4c#/	.	(8ee/ 8g'v/	.	.
8AA'/	.	.	8dd#X/ 8g'/	2	.
8r	8a/ 8g/ 8c#/	.	8ee/J 8g'/	.	.
=144	=144	=144	=144	=144	=144
8r	8a/ 8f#/ 8d/	.	8ff#/L 8a'/	.	.
8AA'\L	4a/ 4f#/ 4d/	.	8d'/J)	.	.
8D'\	.	.	[4aa\ [4ff#u\	.	.
8A'\J	8a/ 8f#/ 8d/	.	.	.	.
!!LO:LB:g=original
=145	=145	=145	=145	=145	=145
*xywh-28:554,4095,3507,1014	*xywh-28:554,4095,3507,1014	*	*xywh-28:425,3814,3666,421	*	*
8d'\	8a/ 8f#/	.	8aa\]L 8ff#\]	.	.
.	.	.	(>>16qqaa\L (16qqff#/	.	.
.	.	.	16qqbb\J 16qqgg/)	.	.
8r	4a/ 4f#/ 4d/	.	8aa\ 8ff#\	.	.
8D'\	.	.	8gg#X\ 8ee#X\)	.	.
8r	8a/ 8f#/ 8d/	.	8aa\J 8ff#'\	.	.
=146	=146	=146	=146	=146	=146
4G/ 4D/ 4GG/	4b/ 4g/ 4d/ 4B/	.	16bb\ 16gg\	.	.
.	.	.	16r	.	.
.	.	.	(8d/ 8Gu/	.	.
8r	8r	.	8.gg\L 8.b\	2	.
8B\ 8G\	8b/ 8g/	.	.	.	.
.	.	.	16ddd\Jk 16bb\)	2	.
=147	=147	=147	=147	=147	=147
4b>\ 4g>\	4bb/ 4gg/	.	(4.ddd\ 4.bb\	.	.
4dd>\ 4b>\	4ddd/ 4bb/	.	.	.	.
.	.	.	8bb\ 8gg\)	.	.
=148	=148	=148	=148	=148	=148
8dd>\ 8a>\ 8d>\	8fff#/ 8ddd/ 8aa/ 8ff#/	.	(8bb\L 8gg\	.	.
8ryy	8r	.	8aa\ 8ff#\)	.	.
.	.	.	(16qqaa\L 16qqff#/	.	.
.	.	.	16qqbb\J 16qqgg/)	.	.
4ryy	4r	.	8.aa\ 8.ff#\	1	.
.	.	.	16gg#X\Jk 16ee#X\	1	.
=149	=149	=149	=149	=149	=149
4r	4r	.	8aa\ 8ff#\	.	.
.	.	.	8r	.	.
*	*	*	*	*below	*
(<8.BB/L	(8.B/L	f	(4bb\ 4dd#X^\	1	.
!LO:SIC:s=32C#LL	!LO:SIC:s=32c#LL	!	!	!	!
32C#X/LL	32c#X/LL	.	.	.	.
32D#X/JJJ	32d#X/JJJ	.	.	.	.
=150	=150	=150	=150	=150	=150
*	*	*	*	*above	*
8E\)	8e/)	.	8aa\L 8ff#\	2	.
8r	8r	.	8ggn\ 8een\)	.	.
.	.	.	(16qqgg\L 16qqee/	.	.
.	.	.	16qqaa\J 16qqff#/)	.	.
4r	4r	.	8.gg\ 8.ee\	.	.
.	.	.	16ff#\Jk 16dd#X\	.	.
=151	=151	=151	=151	=151	=151
4r	4r	.	8gg\ 8ee\	.	.
.	.	.	8r	.	.
(<8.AA/L	(8.A/L	f	(4aa\ 4cc#^\	.	.
32BB/LL	32B/LL	.	.	.	.
32C#/JJJ	32c#/JJJ	.	.	.	.
!!LO:PB:g=original
=152	=152	=152	=152	=152	=152
*xywh-29:181,945,3632,780	*xywh-29:181,945,3632,780	*	*xywh-29:303,506,3523,487	*	*
!LO:TX:t=P:problem=zakończenie łuku na górze	!LO:TX:t=P:problem=brak zakończenia łuku	!	!	!	!
8D\)	8d/)	.	8gg\ 8ee\)	.	.
8r	8r	.	4ff#\ 4dd\	.	.
4r	4r	.	.	.	.
.	.	.	[8aa\ [8ff#\	.	.
=153	=153	=153	=153	=153	=153
*	*	*	*	*^	*
2r	2r	.	8aa\] 8ff#\]	.	.	.
.	.	.	(4gg#X\ 4ee\	4	0	.
.	.	.	8ff#\ 8dd\)	.	.	.
*	*	*	*	*v	*v	*
=154	=154	=154	=154	=154	=154
4E/ 4EE/	4e/ 4c#/ 4A/	.	8ee\L 8cc\ 8e\	.	.
.	.	.	8eeee\J	0 4	.
!	!	!	!	!LO:MO:mod=*null:null	!
*	*	*	*	*below	*
!	!	!	!LO:MO:mod=!LO&colon;TX&colon;a&colon;t=sul G&colon;dur=7qe&colon;ext=ud&colon;problem=text with extension lines	!	!
!	!	!	!LO:TX:a:B:t=Sul G.:dur=7qe:ext=ud:problem=text with extension lines	!	!
4r	4r	.	[4e/	3	.
=155	=155	=155	=155	=155	=155
*	*	*	*Xtuplet	*	*
4E/ 4EE/	4g#X/ 4d/ 4G#X/	.	12e/L]	.	.
.	.	.	12f#/	.	.
.	.	.	12c#/J	.	.
4r	4r	.	12e/L	.	.
.	.	.	12d/	.	.
.	.	.	12B/J	.	.
=156	=156	=156	=156	=156	=156
*tremolo	*	*	*	*	*
32AAA/LLL	4a/ 4e/ 4c#X/ 4A/	<	(8.A/L	.	.
32AA/	.	.	.	.	.
32AAA/	.	.	.	.	.
32AA/	.	.	.	.	.
32AAA/	.	.	.	.	.
32AA/	.	.	.	.	.
32AAA/	.	.	16a/Jk)	2	.
32AA/	.	.	.	.	.
32AAA/	4r	.	[4a/	.	.
32AA/	.	.	.	.	.
32AAA/	.	.	.	.	.
32AA/	.	.	.	.	.
32AAA/	.	.	.	.	.
32AA/	.	.	.	.	.
32AAA/	.	.	.	.	.
32AA/JJJ	.	.	.	.	.
=157	=157	=157	=157	=157	=157
32AAA/LLL	4r	.	4a/]	.	.
32AA/	.	.	.	.	.
32AAA/	.	.	.	.	.
32AA/	.	.	.	.	.
32AAA/	.	.	.	.	.
32AA/	.	.	.	.	.
!	!	!LO:MO:mod=[	!	!	!
32AAA/	.	[ >	.	.	.
32AA/	.	.	.	.	.
!	!	!LO:MO:null:mod=>	!	!	!
32AAA/	4aa\ 4a\	.	4a/	.	.
32AA/	.	.	.	.	.
32AAA/	.	.	.	.	.
32AA/	.	.	.	.	.
32AAA/	.	.	.	.	.
32AA/	.	.	.	.	.
32AAA/	.	.	.	.	.
32AA/JJJ	.	]	.	.	.
=158	=158	=158	=158	=158	=158
*Xtremolo	*	*	*	*above	*
.	.	.	(>8qa/	.	.
8r	(>12gg/L 12cc#/ 12g/	p	16bb\)	0 3	.
.	.	.	16r	.	.
.	12ff#/	.	.	.	.
8AA'/L	.	.	8r	.	.
.	12ee/J)	.	.	.	.
8E'/	[4gg\	.	[4ee\ [4g\	.	.
8A'/J	.	.	.	.	.
!!LO:LB:g=original
=159	=159	=159	=159	=159	=159
*xywh-29:175,2066,3523,737	*xywh-29:175,2066,3523,737	*	*xywh-29:224,1695,3480,426	*	*
!	!	!	!LO:SIC:s=8eeL] 8g]/	!	!
8e'\	4gg\]	.	8ee\]L 8g\]	.	.
.	.	.	(>16qqee/L (16qqgv/	.	.
.	.	.	16qqff#/J 16qqg/)	.	.
!	!	!	!LO:SIC:s=8ee 8g'/	!	!
8r	.	.	8ee\ 8g'\	.	.
!	!	!	!LO:SIC:s=8dd# 8g'/	!	!
8AA'/	(8ff#\L	.	8dd#X\ 8g'\	.	.
!	!	!	!LO:SIC:s=8ee 8g'J/	!	!
8r	8ee\J)	.	8ee\J 8g'\	.	.
=160	=160	=160	=160	=160	=160
!	!	!	!LO:SIC:s=8ff#L 8a'/	!	!
8r	(>12ff#/L 12a/ 12f#/	.	8ff#\L 8a'\	.	.
.	12ee/	.	.	.	.
8AA'\L	.	.	8d'\J)	.	.
.	12dd/J)	.	.	.	.
8D'\	[4a/	.	[4aa\ [4ff#~\	.	.
8A'\J	.	.	.	.	.
=161	=161	=161	=161	=161	=161
8d'\	4a/]	.	8aa\]L 8ff#\]	.	.
.	.	.	(>>16qqaa\L (16qqff#/	.	.
.	.	.	16qqbb\J 16qqgg/)	.	.
8r	.	.	8aa\ 8ff#\	.	.
8D'\	4a/	.	8gg#X\ 8ee#X\)	.	.
8r	.	.	8aa\J 8ff#'\	.	.
=162	=162	=162	=162	=162	=162
8r	(>12b/L 12d/ 12B/	.	16bb\ 16ggn\	.	.
.	.	.	16r	.	.
.	12a/	.	.	.	.
8D'\L	.	.	(8d/ 8Gu/	.	.
.	12g/J)	.	.	.	.
8G'\	[4dd\	.	8.gg\L 8.b\	2	.
8d'\J	.	.	.	.	.
.	.	.	16ddd\Jk 16bb\)	2	.
=163	=163	=163	=163	=163	=163
8g\	4dd\]	.	(4.ddd\ 4.bb\	.	.
8r	.	.	.	.	.
4c#^\	4ee\ 4b\ 4g^\	.	.	.	.
.	.	.	8bb\ 8gg\)	.	.
=164	=164	=164	=164	=164	=164
[2c#\ [2F#\	[2ff#\ [2a#X\ [2f#\	.	([2aa#X\ [2ff#\	.	.
=165	=165	=165	=165	=165	=165
2c#\] 2F#\]	2ff#\] 2a#X\] 2f#\]	.	2aa#X\] 2ff#\]	.	.
=166	=166	=166	=166	=166	=166
!LO:SIC:s=(2f# 2d#	!	!	!LO:TX:b:i:t= :mod=a piacere	!	!
(2f#\ (2d#X\	(2ccn\	.	12aa\L	3	p
!	!	!	!LO:TX:b:i:t=a piacere.:mod=	!	!
.	.	.	12gg\	.	.
.	.	.	12ff#\J)	.	.
.	.	.	[4aa\	.	.
!!LO:LB:g=original
=167	=167	=167	=167	=167	=167
*xywh-29:181,3212,3547,652	*xywh-29:181,3212,3547,652	*	*xywh-29:291,2761,3565,457	*	*
!LO:SIC:s=8g 8e)	!	!	!	!	!
8g\ 8e\))	8b\)	.	8aa\L]	.	.
8r	8r	.	(8gg\	.	.
4r	4r	.	8ff#\	.	.
.	.	.	8ee\J)	.	.
=168	=168	=168	=168	=168	=168
2c#\ 2A#X\	2gn/	.	(12ee\L	4	.
.	.	.	12dd\	.	.
.	.	.	12cc#\J)	.	.
.	.	.	([4ee\	2	.
=169	=169	=169	=169	=169	=169
8d\ 8B\	8fny/	.	8ee\L]	.	.
8r	8r	.	8dd\)	.	.
4d\ 4G#X\	4e#X/	.	8ccn\	.	.
.	.	.	8b-X\J	.	.
=170	=170	=170	=170	=170	=170
8d\ 8A\	8f#/	.	8a/	0	.
8r	4a/ 4f#/ 4d/ 4A/	.	4dd/ 4f#/ 4Au/	.	mf
4r	.	.	.	.	.
.	[8a/ [8f#/ [8d/ [8A/	.	[8dd#X/ [8f#/ [8Au/	.	.
=171	=171	=171	=171	=171	=171
!	!	!	!	!LO:MO:mod=*null:null	!
*	*	*	*	*below	*
!	!	!	!LO:SIC:s=8dd#] 8f#] 8A]	!	!
8AA/	8a/] 8f#/] 8d/] 8A/]	.	8dd#X/] 8f#/] 8A/]	.	.
8r	4a/ 4g/ 4d/ 4A/	.	4ee/ 4a/ 4gu/	0	<
8AAA/	.	.	.	.	.
!	!	!	!LO:SIC:s=8ee# 8a 8gu	!	!
8r	8a/ 8g/ 8c#/ 8A/	.	8ee/ 8a/ 8gu/	.	.
=172	=172	=172	=172	=172	=172
8r	8a/ 8f#/ 8d/ 8A/	.	8ff#/ 8a/ 8d'v/	.	.
8DD'/L	8r	.	(8d/L 8Au/	.	.
8AA'/	4r	.	8f#/ 8d/	.	.
8D'/J	.	.	8a/J 8f#/	.	.
=173	=173	=173	=173	=173	=173
8A'\L	2r	.	12dd/L 12f#/)	.	.
.	.	.	(12f#/ 12d'v/	.	.
8D'\	.	.	.	.	.
.	.	.	12a/J 12f#/	.	.
8A'\	.	.	12dd\L 12f#\	.	.
.	.	.	12ff#\ 12dd\	.	.
8d'\J	.	.	.	.	.
.	.	.	12aa\J 12ff#\)	.	[[
!!LO:LB:g=original
=174	=174	=174	=174	=174	=174
*	*	*	*^	*	*
*xywh-29:205,4242,3565,938	*xywh-29:205,4242,3565,938	*	*xywh-29:217,3846,3523,451	*xywh-29:217,3846,3523,451	*	*
2f#\ 2d#X\	2ccn\	.	4aa/	(12ff#\L	.	f
.	.	.	.	12ee\	.	.
.	.	.	.	12dd#X\J)	2	.
.	.	.	[4aa\ [<<4ff#v\	4ryy	.	.
*	*	*	*v	*v	*	*
=175	=175	=175	=175	=175	=175
*	*	*	*	*above	*
8g#X\ 8e\	8b\	.	8aa\]L 8ff#\]	.	.
8r	8r	.	(8gg#X\ 8ee\	0 3	.
4r	4r	.	8bb\ 8gg#\	.	.
.	.	.	8eee\J 8gg#\)	.	.
=176	=176	=176	=176	=176	=176
[2A\ 2AA\	2b-X/ 2g/ 2c#X/	.	16ccc\ 16eev\	.	.
.	.	.	16r	.	.
.	.	.	(4eee\ 4ggn~\	.	.
.	.	.	8ggg\ 8bb-X\)	.	.
=177	=177	=177	=177	=177	=177
8A\] 8D\	8a/ 8f#/ 8d/	.	8fff#\L 8aa\	.	.
8r	8r	.	8ccc#\	.	.
.	.	.	(>>(16qqccc#/L	.	.
.	.	.	16qqeee/J)	.	.
4GG#X/ 4GGG#X/	4bn/ 4e#X/ 4B/	.	8.ddd\	.	.
.	.	.	16bb\Jk)	.	.
=178	=178	=178	=178	=178	=178
4AA/ 4AAA/	4dd/ 4f#/ 4d/	.	(8aa\L	.	.
!	!	!	!	!LO:MO:mod=*null:null	!
*	*	*	*	*below	*
!	!	!	!	!LO:MO:mod=4 0	!
.	.	.	8bbb\)	0 4	.
4r	4r	.	8aaa\	4	.
.	.	.	8fff#\J	.	.
=179	=179	=179	=179	=179	=179
*	*	*	*	*above	*
2r	2r	.	16ddd\LL	4	.
.	.	.	16bb\	.	.
.	.	.	16aa\	.	.
.	.	.	16ff#\JJ	.	.
.	.	.	16dd/LL	.	.
.	.	.	16a/	.	.
.	.	.	16f#/	.	.
.	.	.	16d/JJ	.	.
=180	=180	=180	=180	=180	=180
2r	2r	.	12B'v/L	.	.
.	.	.	(12Au/	.	.
!	!	!	!LO:MO:mod=!LO&colon;TX&colon;a&colon;t=sul G&colon;dur=4q&colon;ext=ud&colon;problem=text with extension lines	!	!
!	!	!	!LO:TX:a:B:t=Sul G.:dur=4q:ext=ud:problem=text with extension lines	!	!
.	.	.	12G#X/J	.	.
.	.	.	16B/LL	2	.
.	.	.	16c#/	3	.
.	.	.	16.d/	2	.
.	.	.	32a/JJk	4	.
!!LO:PB:g=original
=181	=181	=181	=181	=181	=181
*xywh-30:425,862,3660,782	*xywh-30:425,862,3660,782	*	*xywh-30:438,379,3575,507	*	*
4r	4r	.	4..a/	.	.
4AA\ 4AAA\	4c#X</ 4Gn</	.	.	.	.
.	.	.	16d/)	.	.
=182||	=182||	=182||	=182||	=182||	=182||
*	*^	*	*	*	*
*	*	*	*^	*	*	*
*k[b-]	*k[b-]	*k[b-]	*	*	*k[b-]	*below	*
*F:	*F:	*F:	*	*	*F:	*	*
8BB-\ 8BBB-\	4ryy	8d</L 8B-</ 8F</	.	.	16d'/LL	.	f
.	.	.	.	.	(16f'/	1	p
8r	.	8d</ 8B-</	.	.	16g'/	.	.
.	.	.	.	.	16a'/JJ	.	.
!	!LO:TX:t=Corni.:mod=Cor.	!	!	!LO:DY:b=2	!	!	!
[4F\	[4f^>/	8d</ 8B-</	sf	sf	16b-'/LL	1	.
.	.	.	.	.	16a'/	.	.
.	.	8d</J 8B-</	.	.	16b-'/	.	.
.	.	.	.	.	16dd'/JJ	.	.
*	*	*	*v	*v	*	*	*
=183	=183	=183	=183	=183	=183	=183
2F\_	2f/_	8c</L 8B-</	.	16cc'/LL	.	.
.	.	.	.	16b-'/	.	.
.	.	8c</ 8B-</	.	16g'/	.	.
.	.	.	.	16b-'/JJ	.	.
.	.	8c</ 8A</	.	16a'\LL	.	.
.	.	.	.	16b-'\	.	.
.	.	8c</J 8A</	.	16cc'\	.	.
.	.	.	.	16ff'\JJ	.	.
=184	=184	=184	=184	=184	=184	=184
*	*	*	*	*	*above	*
2F\_	2f/_	8d</L 8B-</	.	(8.dd^/L	2	.
.	.	8d</ 8B-</	.	.	.	.
.	.	.	.	16b-/k)	.	.
.	.	8e-X</ 8B-</	.	(8.g-X^/	.	.
.	.	8e-</J 8B-</	.	.	.	.
.	.	.	.	16a-X/Jk))	.	.
=185	=185	=185	=185	=185	=185	=185
4F\]	8f/]	8d</L 8B-</	.	2f/	.	.
.	8raa	8d</ 8B-</	.	.	.	.
!LO:SIC:s=(<4A-X\ 4AA-X^\	!	!	!	!	!	!
!LO:S:s=1:note:problem:note-level slur 	!	!	!	!	!	!
(<4A-X\ (4AA-X^\	4r	8d</ 8c</	.	.	.	.
.	.	8d</J 8c</	.	.	.	.
=186	=186	=186	=186	=186	=186	=186
!LO:SIC:s=8G\ 8GG\)	!	!	!	!	!	!
8G\) 8GG\)	4ryy	8d/L 8Bn/	.	16r	.	.
.	.	.	.	(16g'\LL	1	.
8r	.	8d/J 8B/	.	16an'\	.	.
.	.	.	.	16bn'\JJ	.	.
!	!	!LO:SIC:s=8e-L 8c\	!	!	!	!
[4G^\	[4g^/	8e\L 8c\	.	16cc'\LL	.	.
.	.	.	.	16b'\	.	.
!	!	!LO:SIC:s=8e-J 8c\	!	!	!	!
.	.	8e\J 8c\	.	16cc'\	.	.
!	!	!	!	!LO:SIC:s=16ee-'\JJ	!	!
.	.	.	.	16ee'\JJ	.	.
!!LO:LB:g=original
=187	=187	=187	=187	=187	=187	=187
*xywh-30:425,2011,3563,702	*xywh-30:425,2011,3563,702	*xywh-30:425,2011,3563,702	*	*xywh-30:419,1565,3679,452	*	*
2G\_	2g/_	8d\L 8c\	.	16dd'\LL	.	.
.	.	.	.	16cc'\	.	.
.	.	8d\ 8c\	.	16a'\	.	.
.	.	.	.	16cc'\JJ	.	.
.	.	8d\ 8Bn\	.	16bn'\LL	.	.
.	.	.	.	16cc'\	.	.
.	.	8d\J 8B\	.	16dd'\	.	.
.	.	.	.	16gg'\JJ	.	.
=188	=188	=188	=188	=188	=188	=188
2G\_	2g/_	8e-X\L 8c\	.	(8.ee-X\L	.	.
.	.	8e-\ 8c\	.	.	.	.
.	.	.	.	16cc\k)	.	.
.	.	8f\ 8c\	.	(8.a-X\	.	.
.	.	8f\J 8c\	.	.	.	.
.	.	.	.	16b-X\Jk))	.	.
=189	=189	=189	=189	=189	=189	=189
8G\]	8g/]	8e-X\L 8c\	.	(2g/	.	.
8r	8raa	8e-\ 8c\	.	.	.	.
4E-X\	4raa	8e-\ 8d-X\ 8B-\	.	.	.	.
.	.	8e-\J 8d-\ 8B-\	.	.	.	.
=190	=190	=190	=190	=190	=190	=190
!	!LO:MO:mod=!LO&colon;TX&colon;a&colon;t=Vni I	!	!	!	!	!
!	!LO:TX:a:B:t=Viol. I°.	!	!	!	!	!
8E-X/ 8AA-X/	16rcc	8c\	.	8.a-X/L)	.	.
.	16e-X'/LL	.	.	.	.	.
8r	16f'/	8rc	.	.	.	.
!	!	!	!	!LO:TX:b:B:t=3.C.:dur=3qs:ext=ud:problem=text with extension lines:mod=	!	!
.	16g'/JJ	.	.	(16e-X/k	1	p
!	!LO:TX:b:t=poco a poco cre_scen_do_:ext=ud:ext2=ud:problem=text with extension lines:mod=	!	!LO:HP:t=poco a poco cre_scen_do_:	!	!	!
4r	16a-X'/LL	4rc	<	8.ee-X/)	4	.
.	16g'/	.	.	.	.	.
.	16a-'/	.	.	.	.	.
.	16cc'/JJ	.	.	(16cc/Jk	.	.
*	*v	*v	*	*	*	*
=191	=191	=191	=191	=191	=191
!LO:MO:mod=!LO&colon;TX&colon;a&colon;t=Vle	!	!	!	!	!
!LO:TX:B:t=Viola.	!	!	!	!	!
16r	(8.ee-X/L 8.g/	.	8.b-/L)	.	.
16C'/LL	.	.	.	.	.
16C'/	.	.	.	.	.
16D'/JJ	16b-/Jk)	.	(16g/k	.	.
16E-X'\LL	8g/ 8B-/	.	8.e-X/)	.	.
16D'\	.	.	.	.	.
16E-'\	8r	.	.	.	.
16G'\JJ	.	.	(16B-/Jk	2	f
=192	=192	=192	=192	=192	=192
(8.B-\L	16r	.	8.d-X/L)	2	.
.	16f'/LL	.	.	.	.
.	16g'/	.	.	.	.
16F\Jk)	16an'/JJ	.	(16f/Jk	2	p
!	!LO:SIC:s=16b-'\LL	!	!	!	!
8D-X/ 8BB-/	16b-'/LL	.	8.ff\L)	4	.
!	!LO:SIC:s=16a'\	!	!	!	!
.	16a'/	.	.	.	.
!	!LO:SIC:s=16b-'\	!	!	!	!
8r	16b-'/	.	.	.	.
!	!LO:SIC:s=16dd-'JJ\	!	!	!	!
.	16dd-X'/JJ	.	(16dd-X\Jk	.	.
!!LO:LB:g=original
=193	=193	=193	=193	=193	=193
*xywh-30:413,3044,3581,843	*xywh-30:413,3044,3581,843	*	*xywh-30:511,2732,3544,391	*	*
!	!LO:SIC:s=(8.ffL 8.a-X\	!	!LO:TX:t=P:problem=zakończenie łuku na dole	!	!
16r	(8.ff/L 8.a-X/	.	8.cc/L)	.	.
16C'\LL	.	.	.	.	.
16Dn'\	.	.	.	.	.
!	!LO:SIC:s=16cc\Jk)	!	!	!	!
16En'\JJ	16cc/Jk)	.	(16a-X/k	3	.
!	!LO:SIC:s=8a- 8c/	!	!	!	!
16F'\LL	8a-X/ 8c/	.	8.f/)	.	.
16E'\	.	.	.	.	.
16F'\	8r	.	.	.	.
16A-X'\JJ	.	.	(16c/Jk	2	f
=194	=194	=194	=194	=194	=194
(8.c\L	16r	.	8.e-X/L)	4	.
.	16g'/LL	.	.	.	.
.	16an'/	.	.	.	.
16G\Jk)	16bn'/JJ	.	(16g/Jk	1	p
8E-X\ 8C\	16cc'\LL	.	8.gg\L)	.	.
.	16b'\	.	.	.	.
8r	16cc'\	.	.	.	.
.	16ee-X'\JJ	.	(16ee-X\Jk	.	.
=195	=195	=195	=195	=195	=195
16r	(8.gg\L 8.b-X\	.	8.dd/L)	.	<
16D'\LL	.	.	.	.	.
16En'\	.	.	.	.	.
16F#X'\JJ	16dd\Jk)	.	(16b-/k	3	.
16G'\LL	8b-/ 8d/	.	8.g/)	.	.
16F#'\	.	.	.	.	.
16G'\	8r	.	.	.	.
16B-'\JJ	.	[[	(16g/Jk	.	[
=196	=196	=196	=196	=196	=196
(8.d\L	2r	.	16f#X/LL)	1	f
.	.	.	(16d/	0	.
.	.	.	16en/)	.	.
16c\k	.	.	(16f#/JJ	.	.
8.B-\	.	.	16g/LL)	.	.
.	.	.	(16g/	1	.
.	.	.	16b-/)	.	.
16G\Jk)	.	.	(16dd/JJ	.	.
=197	=197	=197	=197	=197	=197
(8.D/L	(8.d/L	<	16gg\LL)	.	.
.	.	.	(16gg\	1	.
.	.	.	16bb-\)	.	.
16C/k	16c/k	.	(16ddd\JJ	.	.
*	*	*	*8va	*	*
8.BB-/	8.B-/	.	16ggg\LL)	.	.
.	.	.	(16ggg\	1	.
.	.	.	16bbb-\)	2	.
!	!	!LO:MO:mod=[[	!	!	!
16GG/Jk)	16G/Jk)	[	16dddd'\JJ	3	.
!!LO:LB:g=original
=198	=198	=198	=198	=198	=198
*xywh-30:389,4131,3679,983	*xywh-30:389,4131,3679,983	*	*xywh-30:401,3765,3636,440	*	*
8EE-X/ 8EEE-X/	8g/ 8e-X/ 8B-/ 8G/	ff	16gggg\	4	.
*	*	*	*X8va	*	*
.	.	.	16r	.	.
!!LO:TX:a:t= :mod=Tutti
!	!LO:TX:B:t=TUTTI.:mod=	!	!	!	!
8r	16r	.	8r	.	.
.	(16b-\KL	.	.	.	.
8.r	8.gg\)	.	4r	.	.
(16B-\	(16ff\Jk	.	.	.	.
=199	=199	=199	=199	=199	=199
8.g\L)	8.ee-X\L)	.	2r	.	.
(16f\k	(16bn\k	.	.	.	.
8.e-X\)	8.cc\)	.	.	.	.
(16Bn\Jk	(16g\Jk	.	.	.	.
=200	=200	=200	=200	=200	=200
8.c\L)	8.a-X\L)	.	2r	.	.
(16G\Jk 16En\	(16cc\k	.	.	.	.
8.A-X\L 8.F\)	8.aa-X\)	.	.	.	.
(16c\Jk	(16gg\Jk	.	.	.	.
=201	=201	=201	=201	=201	=201
8.a-X\L)	8.ff\L)	.	2r	.	.
(16g\k	(16cc#X\k	.	.	.	.
8.f\)	8.dd\)	.	.	.	.
(16c#X\Jk	(16a\Jk	.	.	.	.
=202	=202	=202	=202	=202	=202
8.d\L)	8.b-\L)	.	2r	.	.
(16A\Jk 16F#X\	(16dd\k	.	.	.	.
8.B-\L 8.G\)	8.bb-\)	.	.	.	.
16d\Jk	(16aa\Jk	.	.	.	.
=203	=203	=203	=203	=203	=203
*	*^	*	*	*	*
8.r	8.gg/L)	8.b-\L	.	2r	.	.
(16D\	(16ff/k	(16a\Jk	.	.	.	.
8.B-\L)	8.een/)	4g#X^\)	.	.	.	.
(<16BB-\Jk	16dd/Jk	.	.	.	.	.
*	*v	*v	*	*	*	*
=204	=204	=204	=204	=204	=204
8AA/)	8cc#X\ 8a\	.	8.r	.	.
8r	8r	.	.	.	.
!	!	!	!	!LO:MO:mod=*null:null	!
*	*	*	*	*below	*
!	!	!	!LO:N:vis=8	!	!LO:DY:rj
!	!	!	!LO:SIC:s=(16aau\L	!LO:MO:mod=4 0	!
.	.	.	(16aa~\L	0 4	mf
[4A^\	(4dd\ (4g#X\	p	8.ff\	.	.
.	.	.	16gg\Jk	.	.
=205	=205	=205	=205	=205	=205
8A\]	8cc\ 8a#X\))	.	8.ee\L)	.	.
8r	8r	.	.	.	.
*	*	*	*	*above	*
.	.	.	(16a\k	3	.
!LO:S:s=1:note:problem:note-level slur	!	!	!	!	!
(4b-X>\ [4A>\	(4ddd/ 4gg#X/ 4dd/	.	8.f\)	1	.
.	.	.	16g\Jk	.	.
!!LO:PB:g=original
=206	=206	=206	=206	=206	=206
*xywh-31:126,853,3535,871	*xywh-31:126,853,3535,871	*	*xywh-31:144,293,3742,688	*	*
8a>\) 8A>\]	8eee/ 8aa/ 8cc#X/)	.	(>4e/	.	.
8AA\L	8r	.	.	.	.
!!LO:TX:a:i:t= :mod=poco rit.
!	!LO:TX:a:i:t=poco rit.:mod=	!	!LO:TX:a:i:t=poco rit.:mod=	!	!
8E\	4r	.	[4a/	.	.
8A\J	.	.	.	.	.
=207	=207	=207	=207	=207	=207
2r	8e/L	.	4a/])	.	.
.	8A/	.	.	.	.
.	8e/	.	(4a/	.	.
.	8a/J	.	.	.	.
=208	=208	=208	=208	=208	=208
!LO:MO:mod=*null:null	!	!	!	!	!
*Xbrackettup	*	*	*	*	*
!	!	!	!LO:TX:b:i:t=dolce e più tranquillo.:mod=dolce e più tranquillo	!	!
12FFF/	(4.a/	.	(12ee-X\L	.	.
(24e-X\LL	.	p	12dd\	.	.
24f\	.	.	.	.	.
24e-\	.	.	12cc\J))	.	.
24f\JJ	.	.	.	.	.
24e-\LL	.	.	([4ee-\	.	.
24f\	.	.	.	.	.
24e-\	.	.	.	.	.
24f\	8b-X\	.	.	.	.
24e-\	.	.	.	.	.
24f\JJ)	.	.	.	.	.
=209	=209	=209	=209	=209	=209
8e-X\	8bn\L	.	4ee-X\]	.	.
8r	8cc\	.	.	.	.
8F\	8dd\	.	8dd\L	.	.
8r	8ee-X\J)	.	8cc\J)	.	.
=210	=210	=210	=210	=210	=210
12FFF/	(8een/ 8en/	.	(12dd\L	.	.
(24B-\LL 24F\	.	.	12cc\	.	.
24d\	4ff/ 4f/	.	.	.	.
24B-\ 24F\	.	.	12b-\J)	.	.
24d\JJ	.	.	.	.	.
24B-\LL 24F\	.	.	[4f/	.	.
24d\	.	.	.	.	.
24B-\ 24F\	.	.	.	.	.
24d\	8gg\ 8g\	.	.	.	.
24B-\ 24F\	.	.	.	.	.
24d\JJ)	.	.	.	.	.
=211	=211	=211	=211	=211	=211
8F\	8aa\L 8a\	.	8f/]	.	.
8r	8bb-\ 8b-\	.	8r	.	.
8FF/	8ccc\ 8cc\	.	4fv/	.	.
8r	8ddd\J 8dd\)	.	.	.	.
!!LO:LB:g=original
=212	=212	=212	=212	=212	=212
*xywh-31:114,1987,3614,737	*xywh-31:114,1987,3614,737	*	*xywh-31:144,1640,3571,408	*	*
!	!	!	!LO:MO:mod=!LO&colon;TX&colon;a&colon;t=sul D&colon;dur=12q&colon;ext=ud&colon;problem=text with extension lines	!	!
!	!	!	!LO:TX:a:B:t=Sul D.:dur=12q:ext=ud:problem=text with extension lines	!	!
12FFF/	4.eee-X\ 4.ee-X\	.	(12g/L	.	.
!LO:SIC:s=(24B-LL 24 G	!	!	!	!	!
24B-\LL 24G\	.	.	12f/	.	.
24e-X\	.	.	.	.	.
24B-\ 24G\	.	.	12e-X/J)	.	.
24e-\JJ	.	.	.	.	.
24B-\LL 24G\	.	.	([4b-\	.	.
24e-\	.	.	.	.	.
24B-\ 24G\	.	.	.	.	.
24e-\	[8bb-\ [8b-\	.	.	.	.
24B-\ 24G\	.	.	.	.	.
!LO:SIC:s=24e-JJ)	!	!	!	!	!
24e-\JJ	.	.	.	.	.
=213	=213	=213	=213	=213	=213
8B-\ 8G-X\	8bb-\] 8b-\]	.	4b-\]	.	.
8r	4aa-X\ 4a-X\	.	.	.	.
8E-X\	.	.	4cc\)	.	.
8r	8gg-X\ 8g-X\	.	.	.	.
=214	=214	=214	=214	=214	=214
12BB-/ 12BBB-/	8ff\ 8f\	.	[4dd\	.	.
!LO:SIC:s=(24FLL	!	!	!	!	!
24F\LL	.	.	.	.	.
24B-\	8r	.	.	.	.
24F\	.	.	.	.	.
24B-\JJ	.	.	.	.	.
24F\LL	[4d/	.	12dd\L]	.	.
24B-\	.	.	.	.	.
24F\	.	.	12cc\	.	.
24B-\	.	.	.	.	.
24F\	.	.	12b-\J	.	.
!LO:SIC:s=24B-JJ)	!	!	!	!	!
24B-\JJ	.	.	.	.	.
=215	=215	=215	=215	=215	=215
8F\	12d/L]	.	2ff\	4	.
.	12c/	.	.	.	.
8r	.	.	.	.	.
.	12B-/J	.	.	.	.
4r	4f/	.	.	.	.
=216	=216	=216	=216	=216	=216
12DD-X/	(>12cc-X/L 12f/ 12c-X/	.	(4.ff\	.	.
!LO:SIC:s=(24c-LL	!	!	!	!	!
24c-X\LL	12b-/	.	.	.	.
24d-X\	.	.	.	.	.
24c-\	12a-X/J)	.	.	.	.
24d-\JJ	.	.	.	.	.
24c-\LL	([4cc-\	.	.	.	.
24d-\	.	.	.	.	.
24c-\	.	.	.	.	.
24d-\	.	.	8ee-X\)	4	.
24c-\	.	.	.	.	.
!LO:SIC:s=24d-JJ)	!	!	!	!	!
24d-\JJ	.	.	.	.	.
=217	=217	=217	=217	=217	=217
8c-X\	4cc-X\]	.	(4.dd-X\	.	.
8r	.	.	.	.	.
8D-X\	8b-/L	.	.	.	.
8r	8a-X/J)	.	8cc-X\)	.	.
!!LO:LB:g=original
=218	=218	=218	=218	=218	=218
*xywh-31:144,3090,3724,804	*xywh-31:144,3090,3724,804	*	*xywh-31:224,2755,3468,371	*	*
12DD-X/	(>12b-/L 12d-X/ 12B-/	.	(4.b-\	.	.
!LO:SIC:s=(24G-LL 24D-	!	!	!	!	!
24G-X\LL 24D-X\	12a-X/	.	.	.	.
24B-\	.	.	.	.	.
24G-\ 24D-\	12g-X/J)	.	.	.	.
24B-\JJ	.	.	.	.	.
24G-\LL 24D-\	[4d-X/	.	.	.	.
24B-\	.	.	.	.	.
24G-\ 24D-\	.	.	.	.	.
24B-\	.	.	8cc-X\)	.	.
24G-\ 24D-\	.	.	.	.	.
!LO:SIC:s=24B-JJ)	!	!	!	!	!
24B-\JJ	.	.	.	.	.
=219	=219	=219	=219	=219	=219
8D-X'\	8d-X/]	.	(8dd-X\L	.	.
8r	8r	.	8ee-X\	.	.
8DD-X'/	4r	.	8ff\	.	.
8r	.	.	8gg-X\J)	.	.
=220	=220	=220	=220	=220	=220
12DDn/	(>12ccn/L 12f#X/ 12cn/	.	(4.ff#X\	.	.
!LO:SIC:s=(24cLL	!	!	!	!	!
24cn\LL	12bn/	.	.	.	.
24dn\	.	.	.	.	.
24c\	12an/J)	.	.	.	.
24d\JJ	.	.	.	.	.
24c\LL	([4cc\	.	.	.	.
24d\	.	.	.	.	.
24c\	.	.	.	.	.
24d\	.	.	8een\)	.	.
24c\	.	.	.	.	.
!LO:SIC:s=24dJJ)	!	!	!	!	!
24d\JJ	.	.	.	.	.
=221	=221	=221	=221	=221	=221
8c\	4cc\]	.	(4.ddn\	.	.
8r	.	.	.	.	.
8D\	8bn\L	.	.	.	.
8r	8a\J)	.	8ccn\)	.	.
=222	=222	=222	=222	=222	=222
*	*^	*	*	*	*
*	*	*^	*	*	*	*
8GG/ 8GGG/	2bn^/	(>>12f/L	2Bn^<<\	.	(8.bn\L	.	<
.	.	12en/	.	.	.	.	.
8r	.	.	.	.	.	.	.
.	.	12d/J)	.	.	.	.	.
.	.	.	.	.	16dd\Jk)	.	.
!LO:MO:mod=!LO&colon;TX&colon;a&colon;t=Vle	!	!	!	!	!	!	!
!LO:TX:B:t=Viola.	!	!	!	!	!	!	!
(24D\LL	.	[>4f/	.	.	([4dd\	.	.
24F\	.	.	.	.	.	.	.
24D\	.	.	.	.	.	.	.
24F\	.	.	.	.	.	.	.
24D\JJ)	.	.	.	.	.	.	.
24r	.	.	.	.	.	.	.
=223	=223	=223	=223	=223	=223	=223	=223
8GG#X/ 8GGG#X/	2b-X^/	(>>12f/L]	2B-X^<<\	.	8.dd\L]	.	.
.	.	12e/	.	.	.	.	.
8r	.	.	.	.	.	.	.
.	.	12d/J)	.	.	.	.	.
.	.	.	.	.	16ff\Jk)	3	.
(24D\LL	.	[4f/	.	.	([4ff\	.	.
24F\	.	.	.	.	.	.	.
24D\	.	.	.	.	.	.	.
24F\	.	.	.	.	.	.	.
24D\JJ)	.	.	.	.	.	.	.
24r	.	.	.	.	.	.	.
!!LO:LB:g=original
=224	=224	=224	=224	=224	=224	=224	=224
*xywh-31:132,4212,3638,859	*xywh-31:132,4212,3638,859	*xywh-31:132,4212,3638,859	*xywh-31:132,4212,3638,859	*	*xywh-31:169,3828,3620,396	*	*
8AA/ 8AAA/	2a^/	(>>12f/L]	2A^<<\	.	8.ff\L]	.	.
.	.	12e/	.	.	.	.	.
8r	.	.	.	.	.	.	.
.	.	12d/J)	.	.	.	.	.
.	.	.	.	.	16ddd\Jk)	.	.
(24D\LL	.	[4f/	.	.	[4ddd\	.	.
24F\	.	.	.	.	.	.	.
24D\	.	.	.	.	.	.	.
24F\	.	.	.	.	.	.	.
24D\JJ)	.	.	.	.	.	.	.
!	!	!	!	!	!	!	!LO:MO:mod=.
24r	.	.	.	.	.	.	[
=225	=225	=225	=225	=225	=225	=225	=225
!	!	!	!	!	!	!	!LO:MO:null:mod=[
12BB-X/ 12BBB-X/	2g#X/	(>>12f/L]	2G#X^<<\	.	8ddd\]	.	.
(24D\LL	.	12e/	.	.	.	.	.
24F\	.	.	.	.	8r	.	.
24D\	.	12d/J)	.	.	.	.	.
24F\JJ	.	.	.	.	.	.	.
24D\LL	.	4f/	.	.	4ddd\	.	.
24F\	.	.	.	.	.	.	.
24D\	.	.	.	.	.	.	.
24F\	.	.	.	.	.	.	.
24D\	.	.	.	.	.	.	.
24F\JJ)	.	.	.	.	.	.	.
*	*v	*v	*v	*	*	*	*
=226	=226	=226	=226	=226	=226
!	!	!	!LO:TX:b:i:t=appassionato.:mod=appassionato	!	!
8AA/	8a/ 8f#X/ 8d/ 8A/	.	(8.ddd\L	.	.
8r	8r	.	.	.	.
.	.	.	16aa\Jk)	.	.
*	*tremolo	*	*	*	*
[4A^\	32d/LLL	.	4aa\	.	.
.	32f#/	.	.	.	.
.	32d/	.	.	.	.
.	32f#/	.	.	.	.
.	32d/	.	.	.	.
.	32f#/	.	.	.	.
.	32d/	.	.	.	.
.	32f#/JJJ	.	.	.	.
=227	=227	=227	=227	=227	=227
8A\]	32d/LLL	.	8r	.	.
.	32f#X/	.	.	.	.
.	32d/	.	.	.	.
.	32f#/	.	.	.	.
!	!	!	!LO:TX:a:B:t=1.C.:mod=	!	!
!	!	!	!LO:TX:b:t=du talon.:mod=	!	!
8r	32d/	.	8aa'v\L	.	.
.	32f#/	.	.	.	.
.	32d/	.	.	.	.
.	32f#/	.	.	.	.
4A^\	32d/	.	8gg\	.	.
.	32f#/	.	.	.	.
.	32d/	.	.	.	.
.	32f#/	.	.	.	.
.	32d/	.	8ff#X\J	.	.
.	32f#/	.	.	.	.
.	32d/	.	.	.	.
.	32f#X/JJJ	.	.	.	.
=228	=228	=228	=228	=228	=228
*tremolo	*	*	*	*	*
32A\LLL	32d#X/LLL	.	(4aa\	3	.
32cn\	32f#X/	.	.	.	.
32A\	32d#/	.	.	.	.
32c\	32f#/	.	.	.	.
32A\	32d#/	.	.	.	.
32c\	32f#/	.	.	.	.
32A\	32d#/	.	.	.	.
32c\	32f#/	.	.	.	.
32A\	32d#/	.	12ccc\L)	3	.
32c\	32f#/	.	.	.	.
32A\	32d#/	.	.	.	.
.	.	.	(12bbn\	.	.
32c\	32f#/	.	.	.	.
32A\	32d#/	.	.	.	.
32c\	32f#/	.	.	.	.
.	.	.	12aa\J	.	.
32A\	32d#/	.	.	.	.
32cn\JJJ	32f#X/JJJ	.	.	.	.
=229	=229	=229	=229	=229	=229
*	*	*	*	*below	*
32A\LLL	32d#X/LLL	.	(12aa\L	3	.
32c\	32f#X/	.	.	.	.
32A\	32d#/	.	.	.	.
.	.	.	12gg\	.	.
32c\	32f#/	.	.	.	.
32A\	32d#/	.	.	.	.
32c\	32f#/	.	.	.	.
.	.	.	12ff#X\J)	.	.
32A\	32d#/	.	.	.	.
32c\	32f#/	.	.	.	.
32A\	32d#/	.	(12ff#\L	3	.
32c\	32f#/	.	.	.	.
32A\	32d#/	.	.	.	.
.	.	.	12een\	.	.
32c\	32f#/	.	.	.	.
32A\	32d#/	.	.	.	.
32c\	32f#/	.	.	.	.
.	.	.	12dd#X\J))	.	.
32A\	32d#/	.	.	.	.
32c\JJJ	32f#X/JJJ	.	.	.	.
*	*Xtremolo	*	*	*	*
=230	=230	=230	=230	=230	=230
32Bn\LLL 32A\	(8.eeen\L 8.een\	.	(12dd#X\L	.	.
32g\ 32e\	.	.	.	.	.
32B\ 32A\	.	.	.	.	.
.	.	.	12ee\	.	.
32g\ 32e\	.	.	.	.	.
32B\ 32A\	.	.	.	.	.
32g\ 32e\	.	.	.	.	.
*	*	*	*	*above	*
.	.	.	12ff#X\J	3	.
32B\ 32A\	16bbn\Jk 16bn\)	.	.	.	.
32g\ 32e\	.	.	.	.	.
32B\ 32A\	[4bb\ [4b\	.	8.aa\L	3	.
32g\ 32e\	.	.	.	.	.
32B\ 32A\	.	.	.	.	.
32g\ 32e\	.	.	.	.	.
32B\ 32A\	.	.	.	.	.
32g\ 32e\	.	.	.	.	.
32B\ 32A\	.	.	16gg\Jk)	.	.
32g\JJJ 32e\	.	.	.	.	.
=231	=231	=231	=231	=231	=231
32Bn\LLL 32A\	4bbnX\] 4bnX\]	.	(12dd#X\L	1	.
32g\ 32e\	.	.	.	.	.
32B\ 32A\	.	.	.	.	.
.	.	.	12ee\)	0	.
32g\ 32e\	.	.	.	.	.
32B\ 32A\	.	.	.	.	.
32g\ 32e\	.	.	.	.	.
.	.	.	12gg'\J	.	.
32B\ 32A\	.	.	.	.	.
32g\JJJ 32e\	.	.	.	.	.
.	.	.	(8qgg/	.	.
32B\LLL 32A\	4ddd\ 4dd\	.	(8.ccc#X\L)	.	.
32g#X\ 32f\	.	.	.	.	.
32B\ 32A\	.	.	.	.	.
32g#\ 32f\	.	.	.	.	.
32B\ 32A\	.	.	.	.	.
32g#\ 32f\	.	.	.	.	.
32B\ 32A\	.	.	16bbn\Jk)	.	.
32g#X\JJJ 32f\	.	.	.	.	.
!!LO:PB:g=original
=232	=232	=232	=232	=232	=232
*xywh-32:438,911,3569,757	*xywh-32:438,911,3569,757	*	*xywh-32:450,336,3605,647	*	*
*	*tremolo	*	*	*	*
32A\LLL	32f#X/LLL	.	(8aa\L	.	.
32d\	32a/	.	.	.	.
32A\	32f#/	.	.	.	.
32d\	32a/	.	.	.	.
32A\	32f#/	.	8ddd\)	.	.
32d\	32a/	.	.	.	.
32A\	32f#/	.	.	.	.
32d\	32a/	.	.	.	.
32A\	32f#/	.	8ccc#X^\	.	.
32d\	32a/	.	.	.	.
32A\	32f#/	.	.	.	.
32d\	32a/	.	.	.	.
32A\	32f#/	.	8cccn^\J	.	.
32d\	32a/	.	.	.	.
32A\	32f#/	.	.	.	.
32d\JJJ	32a/JJJ	.	.	.	.
=233	=233	=233	=233	=233	=233
32A\LLL	32f#X/LLL	.	8bbn^\L	.	.
32d\	32a/	.	.	.	.
32A\	32f#/	.	.	.	.
32d\	32a/	.	.	.	.
32A\	32f#/	.	8bb-X^\J	.	.
32d\	32a/	.	.	.	.
32A\	32f#/	.	.	.	.
32d\	32a/	.	.	.	.
32A\	32f#/	.	[4aa\	.	.
32d\	32a/	.	.	.	.
32A\	32f#/	.	.	.	.
32d\	32a/	.	.	.	.
32A\	32f#/	.	.	.	.
32d\	32a/	.	.	.	.
32A\	32f#/	.	.	.	.
32d\JJJ	32a/JJJ	.	.	.	.
=234	=234	=234	=234	=234	=234
32A\LLL	32a/LLL 32f#X/	.	(12aa\L]	.	.
32d\	32dd/	.	.	.	.
32A\	32a/ 32f#/	.	.	.	.
.	.	.	24ddd\k 24dd\)	.	.
32d\	32dd/	.	.	.	.
32A\	32a/ 32f#/	.	24r	.	.
32d\	32dd/	.	.	.	.
.	.	.	(12ccc#X\J 12cc#X^\	.	.
32A\	32a/ 32f#/	.	.	.	.
32d\	32dd/	.	.	.	.
32A\	32a/ 32f#/	.	12ccc#\L 12cc#^\	.	.
32d\	32dd/	.	.	.	.
32A\	32a/ 32f#/	.	.	.	.
.	.	.	12bbn\ 12bn^\	.	.
32d\	32dd/	.	.	.	.
32A\	32a/ 32f#/	.	.	.	.
32d\	32dd/	.	.	.	.
.	.	.	12bb-X\J 12b-X^\)	.	.
32A\	32a/ 32f#/	.	.	.	.
32d\JJJ	32dd/JJJ	.	.	.	.
=235	=235	=235	=235	=235	=235
32d\LLL 32A\	32dd\LLL 32a\	.	(8aa\L 8a\	.	.
32f#X\	32ff#X\	.	.	.	.
32d\ 32A\	32dd\ 32a\	.	.	.	.
32f#\	32ff#\	.	.	.	.
32d\ 32A\	32dd\ 32a\	.	8d\J)	.	.
32f#\	32ff#\	.	.	.	.
32d\ 32A\	32dd\ 32a\	.	.	.	.
32f#\	32ff#\	.	.	.	.
32d\ 32A\	32dd\ 32a\	.	16c#X/LL	.	.
32f#\	32ff#\	.	.	.	.
32d\ 32A\	32dd\ 32a\	.	16cn/	.	.
32f#\	32ff#\	.	.	.	.
32d\ 32A\	32dd\ 32a\	.	16Bn/	.	.
32f#\	32ff#\	.	.	.	.
32d\ 32A\	32dd\ 32a\	.	16B-X/JJ	.	.
32f#X\JJJ	32ff#X\JJJ	.	.	.	.
*Xtremolo	*Xtremolo	*	*	*	*
=236	=236	=236	=236	=236	=236
8g\ 8e\ 8d\ 8A\	8aa\ 8ee\ 8dd\ 8a\	.	8A/	.	.
8r	8r	.	8r	.	.
!	!	!	!LO:TR:acc=n	!	!
4r	4r	.	(<4A~T/	.	.
=237	=237	=237	=237	=237	=237
2r	2r	.	4at/	.	.
.	.	.	4aaT\)	.	.
=238	=238	=238	=238	=238	=238
2r	8e/ 8d/ 8A/	p	[2aaaT\	.	.
.	8r	.	.	.	.
.	4r	.	.	.	.
=239	=239	=239	=239	=239	=239
2r	8e/ 8c#X/ 8A/	p	2aaaT\]	.	.
.	8r	.	.	.	.
.	4r	.	.	.	.
!!LO:LB:g=original
=240	=240	=240	=240	=240	=240
!!!OMD:
!!!OMD-mod: Moderato
*xywh-32:401,1956,3666,825	*xywh-32:401,1956,3666,825	*	*xywh-32:419,1632,3544,360	*	*
!	!LO:MO:mod=!LO&colon;TX&colon;a&colon;t=Fl. I	!	!	!	!
!	!LO:TX:a:B:t=Fl. I°.	!	!	!	!
!	!LO:TX:a:B:t=Moderato.:mod=	!	!LO:TR:acc=-	!	!
8f\L 8d\ 8A'\	16r	p	[2aaat\	.	.
.	16a'\LL	.	.	.	.
8f\ 8d\ 8A'\	16bn'\	.	.	.	.
.	16cc#X'\JJ	.	.	.	.
8f\ 8d\ 8A'\	16dd'\LL	.	.	.	.
.	16cc#'\	.	.	.	.
8f\J 8d\ 8A'\	16dd'\	.	.	.	.
.	16ff'\JJ	.	.	.	.
=241	=241	=241	=241	=241	=241
!	!	!	!LO:TR:acc=-	!	!
8e\L 8d\ 8A'\	16ee'\LL	.	2aaat\]	.	.
.	16dd'\	.	.	.	.
8e\ 8d\ 8A'\	16bn'\	.	.	.	.
.	16dd'\JJ	.	.	.	.
8e\ 8c#X\ 8A'\	16cc#X'\LL	.	.	.	.
.	16dd'\	.	.	.	.
8e\J 8c#\ 8A'\	16ee'\	.	.	.	.
.	16aa'\JJ	.	.	.	.
=242	=242	=242	=242	=242	=242
8f\L 8d\ 8A\	(8.ff\L	.	[2aaat\	.	.
8f\ 8d\ 8A\	.	.	.	.	.
.	16dd\k	.	.	.	.
8g\ 8d\ 8A\	8.b-X\	.	.	.	.
8g\J 8d\ 8A\	.	.	.	.	.
.	16ccn\Jk)	.	.	.	.
=243	=243	=243	=243	=243	=243
8f\L 8d\ 8A\	2a/	.	2aaat\]	.	.
8f\ 8d\ 8A\	.	.	.	.	.
8f\ 8d\ 8A\	.	.	.	.	.
8f\J 8d\ 8A\	.	.	.	.	.
=244	=244	=244	=244	=244	=244
8f\L 8d\ 8A\	16r	.	[2aaat\	.	.
.	16a\LL	.	.	.	.
8f\ 8d\ 8A\	16bn\	.	.	.	.
.	16cc#X\JJ	.	.	.	.
8f\ 8d\ 8A\	16dd\LL	.	.	.	.
.	16cc#\	.	.	.	.
8f\J 8d\ 8A\	16dd\	.	.	.	.
.	16ff\JJ	.	.	.	.
!!LO:LB:g=original
=245	=245	=245	=245	=245	=245
*xywh-32:413,3086,3569,739	*xywh-32:413,3086,3569,739	*	*xywh-32:401,2701,3618,409	*	*
8e\L 8d\ 8A\	16ee\LL	.	2aaat\]	.	.
.	16dd\	.	.	.	.
8e\ 8d\ 8A\	16bn\	.	.	.	.
.	16dd\JJ	.	.	.	.
8e\ 8cn\ 8A\	16ccn\LL	.	.	.	.
.	16dd\	.	.	.	.
8e\J 8c\ 8A\	16ee\	.	.	.	.
.	16ccc\JJ	.	.	.	.
=246	=246	=246	=246	=246	=246
8f\L 8c\ 8A\	(8.aa\L	.	[2aaat\	.	.
8f\ 8c\ 8A\	.	.	.	.	.
.	16ff\k	.	.	.	.
8f\ 8d-X\ 8A\	8.dd-X\	.	.	.	.
8f\J 8d-\ 8A\	.	.	.	.	.
.	16ee-X\Jk)	.	.	.	.
=247	=247	=247	=247	=247	=247
8f\L 8c\ 8A\	2cc\	.	(2aaat\]	.	.
8f\ 8c\ 8A\	.	.	.	.	.
8f\ 8c\ 8A\	.	.	.	.	.
8f\J 8c\ 8A\	.	.	.	.	.
.	.	.	8qggg#X/)	.	.
=248	=248	=248	=248	=248	=248
8r	2aa\ 2a^\	p	(16aaa\LL	.	.
.	.	.	16aa\)	.	.
!	!	!	!LO:TX:a:i:t=saltando.:mod=saltando	!	!
8g'\L	.	.	16bbn'\	.	p
.	.	.	16ccc#X'\JJ	1	.
8f'\	.	.	16ddd'\LL	.	.
.	.	.	16ccc#'\	.	.
8d'\J	.	.	16ddd'\	.	.
.	.	.	16fff'\JJ	.	.
=249	=249	=249	=249	=249	=249
8r	2ff\ 2f^\	.	(16eee-X\LL	.	.
.	.	.	16ff\)	1	.
8e-X'\L	.	.	16gg\	.	.
.	.	.	16aa\JJ	1	.
8d'\	.	.	16bb-X\LL	.	.
.	.	.	16aa\	.	.
8B-'\J	.	.	16bb-\	.	.
.	.	.	16ddd\JJ	.	.
=250	=250	=250	=250	=250	=250
8r	[>2dd/ [<2d^>/	.	(16ccc\LL	3	.
.	.	.	16dd\)	1	.
8c'\L	.	.	16een\	0	.
.	.	.	16ff#X\JJ	.	.
8B-'\	.	.	16gg\LL	.	.
.	.	.	16ff#\	.	.
8G'\J	.	.	16gg\	.	.
.	.	.	16bb-\JJ	.	.
!!LO:LB:g=original
=251	=251	=251	=251	=251	=251
*	*^	*	*	*	*
*xywh-32:407,4174,3630,947	*xywh-32:407,4174,3630,947	*xywh-32:407,4174,3630,947	*	*xywh-32:413,3795,3575,397	*	*
(4F\	2dd/]	4a\ 4d\]	.	16aa'\LL	.	.
.	.	.	.	16a'\	.	.
.	.	.	.	16dd'\	.	.
.	.	.	.	16aa'\JJ	.	.
4B-\)	.	4g#X\ 4e\	.	16gg#X'\LL	.	.
.	.	.	.	16b-'\	.	.
.	.	.	.	16dd'\	.	.
.	.	.	.	16gg#'\JJ	.	.
*	*v	*v	*	*	*	*
=252	=252	=252	=252	=252	=252
8A\	8cc#X/ 8a/ 8e/	.	16aa\LL	.	.
.	.	.	16ee\	.	.
8r	8r	.	16cc#X\	.	.
.	.	.	16a\JJ	.	.
4r	4r	.	16cc#\LL	.	.
.	.	.	16ee\	.	.
.	.	.	16aa\	.	.
.	.	.	16ccc#X\JJ	.	.
=253	=253	=253	=253	=253	=253
8F'\	(8.f^>/L	.	16ddd\LL	.	.
.	.	.	16bb-\	.	.
8r	.	.	16ff\	.	.
.	16d/k	.	16bb-\JJ	.	.
8BB-X'/	8.B-X^>/	.	16ddd\LL	.	.
.	.	.	16bb-\	.	.
8r	.	.	16ddd\	2	.
.	16c#X/Jk	.	16eee\JJ	.	.
=254	=254	=254	=254	=254	=254
*	*	*	*8va	*	*
8AA'/	8A/)	.	16eee\LL	.	.
.	.	.	16ccc#X\	.	.
8r	8r	.	16aa\	3	.
.	.	.	16ccc#\JJ	.	.
4r	4r	.	16eee\LL	.	.
.	.	.	16ccc#\	.	.
.	.	.	16eee\	1	.
.	.	.	16aaa\JJ	.	.
=255	=255	=255	=255	=255	=255
8f'\	(8.ff^\L	.	16fff\LL	2	.
.	.	.	16ddd\	1	.
8r	.	.	16fff\	.	.
.	16dd\k	.	16bbb-\JJ	1	.
8B-'\	8.b-X^\	.	16dddd\LL	3	.
.	.	.	16bbb-\	.	.
8r	.	.	16dddd\	.	.
.	16cc#X\Jk	.	16eeee\JJ	0 4	.
=256	=256	=256	=256	=256	=256
8A'\	8a/)	.	16eeee\LL	.	.
.	.	.	16cccc#X\	3	.
8r	8r	.	16aaa\	1	.
.	.	.	16eee\JJ	0	.
*	*	*	*X8va	*	*
4r	4r	.	16ccc#\LL	.	.
.	.	.	16bbn\	.	.
.	.	.	16aa\	.	.
.	.	.	16ee\JJ	.	.
!!LO:PB:g=original
=257	=257	=257	=257	=257	=257
*xywh-33:156,823,3657,670	*xywh-33:156,823,3657,670	*	*xywh-33:175,268,3620,615	*	*
2r	2r	.	16eee\LL	o	.
.	.	.	16ccc#X\	.	.
.	.	.	16aa\	.	.
.	.	.	16ee\JJ	.	.
.	.	.	16cc#X/LL	.	.
.	.	.	16bn/	.	.
.	.	.	16a/	.	.
.	.	.	16e/JJ	.	.
=258	=258	=258	=258	=258	=258
2r	2r	.	16ee/LL	.	.
.	.	.	16cc#X/	.	.
.	.	.	16a/	.	.
.	.	.	16e/JJ	.	.
.	.	.	16c#X/LL	4	<
.	.	.	16B#X/	3	.
.	.	.	16c#/	.	.
.	.	.	16d/JJ	0	.
=259	=259	=259	=259	=259	=259
2r	2r	.	16d#X/LL	.	.
.	.	.	16e/	.	.
.	.	.	16fn/	.	.
.	.	.	16f#X/JJ	.	.
.	.	.	16g/LL	3	.
.	.	.	16g#X/	4	.
.	.	.	16a/	.	.
.	.	.	16b-X/JJ	.	[[
=260	=260	=260	=260	=260	=260
2r	8a-X/L 8f/ 8c/	p	(16bn\LL	.	.
.	.	.	16cc\)	1	.
.	8a-/ 8f/ 8c/	.	(16dd'\	.	.
.	.	.	16ee'\JJ	.	.
.	8a-/ 8f/ 8c/	.	16ff'\LL	.	.
.	.	.	16ee'\	.	.
.	8a-/J 8f/ 8c/	.	16ff'\	.	.
.	.	.	16aa-X'\JJ	.	.
=261	=261	=261	=261	=261	=261
2r	8g/L 8f/ 8c/	.	16gg'\LL	.	.
.	.	.	16ff'\	.	.
.	8g/ 8f/ 8c/	.	16dd'\	.	.
.	.	.	16ff'\JJ	.	.
.	8g/ 8en/ 8c/	.	16ee'\LL	.	.
.	.	.	16ff'\	.	.
.	8g/J 8e/ 8c/	.	16gg'\	.	.
.	.	.	16ccc'\JJ	.	.
=262	=262	=262	=262	=262	=262
*	*^	*	*	*	*
2r	8f\L 8c\	(>>4a-X/	.	8.aa-X^\L	.	<
.	8f\ 8c\	.	.	.	.	.
.	.	.	.	16ff\k	.	.
.	8f\ 8c\	4b-/	.	8.dd-X^\	.	.
.	8f\J 8c\	.	.	.	.	.
!	!	!	!	!	!	!LO:MO:mod=[[
.	.	.	.	16ee-X\Jk)	.	[
!!LO:LB:g=original
=263	=263	=263	=263	=263	=263	=263
*xywh-33:248,1847,3547,768	*xywh-33:248,1847,3547,768	*xywh-33:248,1847,3547,768	*	*xywh-33:205,1493,3547,402	*	*
2r	8a-X\L 8f\ 8c\	2cc/)	.	2cc\	.	>
.	8a-\ 8f\ 8c\	.	.	.	.	.
.	8a-\ 8f\ 8c\	.	.	.	.	.
!	!	!	!	!	!	!LO:MO:mod=]]
.	8a-\J 8f\ 8c\	.	.	.	.	]
*	*v	*v	*	*	*	*
=264	=264	=264	=264	=264	=264
!	!	!	!	!	!LO:MO:mod=.
2r	8a-X/L 8f/ 8c/	.	16r	.	p
!	!	!	!	!LO:MO:mod=*null:null	!
*	*	*	*	*below	*
!	!	!	!	!	!LO:MO:null:mod=p
.	.	.	(16ccv'\LL	1	.
.	8a-/ 8f/ 8c/	.	16dd'\	.	.
.	.	.	16een'\JJ	1	.
.	8a-/ 8f/ 8c/	.	16ff'\LL	2	.
.	.	.	16ee'\	1	.
.	8a-/J 8f/ 8c/	.	16ff'\	.	.
.	.	.	16aa-X'\JJ	4	.
=265	=265	=265	=265	=265	=265
2r	8g/L 8f/ 8c/	.	16gg'\LL	.	.
.	.	.	16ff'\	.	.
*	*	*	*	*above	*
.	8g/ 8f/ 8c/	.	16dd'\	4	.
.	.	.	16ff'\JJ	.	.
.	8g/ 8e-X/ 8c/	.	16ee-X'\LL	.	.
.	.	.	16ff'\	.	.
.	8g/J 8e-/ 8c/	.	16gg'\	.	.
.	.	.	16eee-X'\JJ	.	.
=266	=266	=266	=266	=266	=266
*	*^	*	*	*	*
2r	8a-X\L 8e-X\	(>>4cc/	.	8.ccc^\L	.	.
.	8a-\ 8e-\	.	.	.	.	.
.	.	.	.	16aa-X\k	.	.
.	8a-\ 8e-\	4dd-X/	.	8.ff-X^\	.	.
.	8a-\J 8e-\	.	.	.	.	.
.	.	.	.	16gg-X\Jk)	.	.
=267	=267	=267	=267	=267	=267	=267
2r	8cc\L 8a-X\ 8e-X\	2ee-X/)	.	2ee-X\	.	.
.	8cc\ 8a-\ 8e-\	.	.	.	.	.
.	8cc\ 8a-\ 8e-\	.	.	.	.	.
.	8cc\J 8a-\ 8e-\	.	.	.	.	.
*	*v	*v	*	*	*	*
=268	=268	=268	=268	=268	=268
8r>	2ccc/ 2cc^>/	.	16r	.	.
!	!	!	!	!LO:MO:mod=*null:null	!
*	*	*	*	*below	*
.	.	.	16ccc'v\LL	1	.
8b->'\L	.	.	16ddd'\	.	.
.	.	.	16eeen'\JJ	1	.
8a-X>'\	.	.	16fffn'\LL	.	.
.	.	.	16eee'\	.	.
8f>'\J	.	.	16fff'\	.	.
.	.	.	16aaa-X'\JJ	.	.
!!LO:LB:g=original
=269	=269	=269	=269	=269	=269
*xywh-33:193,2981,3541,719	*xywh-33:193,2981,3541,719	*	*xywh-33:224,2603,3510,414	*	*
8r	2gg\ 2g^\	.	(16ggg\LL	.	.
*	*	*	*	*above	*
.	.	.	16gg\)	1	.
8f'\L	.	.	16aa\	.	.
.	.	.	16bbn\JJ	A	.
8e-X'\	.	.	16ccc\LL	.	.
.	.	.	16bb\	.	.
8c'\J	.	.	16ccc\	.	.
.	.	.	16eee-X\JJ	.	.
=270	=270	=270	=270	=270	=270
8r	[2dd/ [2d^>/	.	(16ddd\LL	4	.
.	.	.	16dd\)	1	.
8c'\L	.	.	16een\	0	.
.	.	.	16ff#X\JJ	.	.
8B-'\	.	.	16gg\LL	.	.
.	.	.	16ff#\	.	.
8G'\J	.	.	16gg\	.	.
.	.	.	16bb-X\JJ	.	.
=271	=271	=271	=271	=271	=271
*	*^	*	*	*	*
(4F\	2dd/]	4a\ 4d\]	.	16aa'\LL	.	.
.	.	.	.	16a'\	.	.
.	.	.	.	16dd'\	.	.
.	.	.	.	16aa'\JJ	.	.
4B-\)	.	4g#X\ 4e\	.	16gg#X'\LL	.	.
.	.	.	.	16b-'\	.	.
.	.	.	.	16dd'\	.	.
.	.	.	.	16gg#'\JJ	.	.
*	*v	*v	*	*	*	*
=272	=272	=272	=272	=272	=272
8A\	8dd/ 8a/ 8f/	.	16aa'\LL	.	<
.	.	.	16a'\	0	.
8r	8r	.	16aa'\	3	.
.	.	.	16fff^\JJ	.	.
4r	4r	.	16eee'\LL	.	.
.	.	.	16a'\	0	.
.	.	.	16ff'\	3	.
.	.	.	16ddd^\JJ	.	.
=273	=273	=273	=273	=273	=273
2r	2r	.	16ccc'\LL	.	.
.	.	.	16a'\	.	.
.	.	.	16dd'\	.	.
.	.	.	16bb-^\JJ	.	.
.	.	.	16aa'\LL	.	.
.	.	.	16a'\	.	.
.	.	.	16b-'\	.	.
!	!	!	!	!	!LO:MO:mod=[[
.	.	.	16gg#X^\JJ	.	[
=274	=274	=274	=274	=274	=274
8f\ 8d\ 8A\	8ff\ 8dd\ 8a\	.	16aa\LL	.	.
.	.	.	16a\	0	.
8r	8r	.	16aa\	.	.
.	.	.	16aaa\JJ	.	.
4r	4r	.	16ggg\LL	.	.
.	.	.	16a\	.	.
.	.	.	16ff\	.	.
.	.	.	16fff\JJ	.	.
!!LO:LB:g=original
=275	=275	=275	=275	=275	=275
*xywh-33:193,4078,3590,920	*xywh-33:193,4078,3590,920	*	*xywh-33:187,3669,3632,414	*	*
2r	2r	.	16eee\LL	.	>
.	.	.	16a\	.	.
.	.	.	16dd\	.	.
.	.	.	16ddd\JJ	.	.
.	.	.	16ccc\LL	.	.
.	.	.	16a\	.	.
.	.	.	16b-\	.	.
!	!	!	!	!	!LO:MO:mod=]]
.	.	.	16bb-\JJ	.	]
=276	=276	=276	=276	=276	=276
8f\ 8d\ 8A\	8aa\ 8ff\ 8dd\ 8a\	.	16aa\LL	.	.
.	.	.	16ff\	.	.
8r	8r	.	16dd\	.	.
.	.	.	16a\JJ	.	.
4r	4r	.	16f/LL	.	.
.	.	.	16d/	.	.
.	.	.	16A/	.	.
.	.	.	16G#X/JJ	.	.
=277	=277	=277	=277	=277	=277
2r	2r	.	16A/LL	.	.
.	.	.	16Bn/	.	.
.	.	.	16c#X/	.	.
.	.	.	16d/JJ	.	.
.	.	.	16e/LL	.	<
.	.	.	16f/	.	.
.	.	.	16g/	.	.
.	.	.	16g#X/JJ	.	.
=278	=278	=278	=278	=278	=278
[2e\ [<<2d\ [2A\	2r	.	(16a\LL	.	.
.	.	.	16bn\)	.	.
.	.	.	16cc#X\	.	.
.	.	.	16dd\JJ	.	.
.	.	.	16ee\LL	.	.
.	.	.	16ff\	.	.
.	.	.	16gg\	.	.
.	.	.	16gg#X\JJ	.	.
=279	=279	=279	=279	=279	=279
2e\] 2d\] 2A\]	2r	.	16aa\LL	1	.
.	.	.	16bbn\	.	.
.	.	.	16ccc#X\	1	.
.	.	.	16ddd\JJ	.	.
.	.	.	16eee\LL	1	.
.	.	.	16fff#X\	.	.
.	.	.	16ggg\	.	.
!	!	!	!	!	!LO:MO:mod=[[
.	.	.	16aaa\JJ	.	[
!!LO:PB:g=original
=280||	=280||	=280||	=280||	=280||	=280||
*k[f#c#]	*k[f#c#]	*	*k[f#c#]	*	*
*D:	*D:	*	*D:	*	*
*xywh-34:487,825,3495,751	*xywh-34:487,825,3495,751	*	*xywh-34:505,330,3520,556	*	*
8r	8a/ 8g/ 8c#/	f	16bbb\	4 o	f
.	.	.	16r	.	.
8AA'\L	4a/ 4g/ 4c#/	p	8r	.	.
8E'\	.	.	[4ee\ [4g^\	.	.
8A'\J	8a/ 8g/ 8c#/	.	.	.	.
=281	=281	=281	=281	=281	=281
8e'\	8a/ 8g/	.	8ee\]L 8g\]	.	.
.	.	.	(16qqee\L 16qqgv/	.	.
.	.	.	16qqff#\J 16qqg/)	.	.
8r	4a/ 4g/ 4A/	.	(8ee'\ 8g'^\	.	.
8AA'/	.	.	8dd#X'\ 8g'^\	.	.
8r	8a/ 8g/ 8A/	.	8ee'\J 8g'^\	.	.
=282	=282	=282	=282	=282	=282
8r	8a/ 8f#/ 8A/	.	8ff#'/L 8a'^/	.	.
8AA'\L	4a/ 4f#/ 4A/	.	8d'^/J)	.	.
8D'\	.	.	[4aa\ [4ff#^\	.	.
8A'\J	8a/ 8f#/	.	.	.	.
=283	=283	=283	=283	=283	=283
8d'\	8a/ 8f#/	.	8aa\]L 8ff#\]	.	.
.	.	.	(16qqaa\L 16qqff#/	.	.
.	.	.	16qqbb\J 16qqgg/)	.	.
8r	4a/ 4f#/ 4A/	.	(8aa\ 8ff#'^\	.	.
8D'\	.	.	8gg#X\ 8ee#X'^\	.	.
8r	8a/ 8f#/ 8A/	.	8aa\J 8ff#'^\	.	.
=284	=284	=284	=284	=284	=284
4G/ 4D/ 4GG/	4b/ 4g/ 4d/ 4B/	.	16bb\ 16gg'^\)	.	.
.	.	.	16r	.	.
.	.	.	(8d/ 8G/	.	.
8r	8r	.	8.gg\L 8.b\	.	.
8B\ 8G\	8b/ 8g/	.	.	.	.
.	.	.	16ddd\Jk 16bb\)	.	.
=285	=285	=285	=285	=285	=285
!LO:SIC:s=4b> 4g>	!	!	!	!	!
4b\ 4g\	4bb/ 4gg/	.	(4.ddd\ 4.bb\	.	.
!LO:SIC:s=4dd> 4b>	!	!	!	!	!
4dd\ 4b\	4ddd/ 4bb/	.	.	.	.
.	.	.	8bb\ 8gg\)	.	.
=286	=286	=286	=286	=286	=286
!LO:SIC:s=8dd> 8a> 8d>	!	!	!	!	!
8dd\ 8a\ 8d\	8fff#/ 8ddd/ 8aa/ 8ff#/	.	(8bb\L 8gg\	.	.
!LO:SIC:s=8ryy	!	!	!	!	!
8r	8r	.	8aa\ 8ff#\)	.	.
.	.	.	(16qqaa\L 16qqff#/	.	.
.	.	.	16qqbb\J 16qqgg/	.	.
!LO:SIC:s=4ryy	!	!	!	!	!
4r	4r	.	8.aa\ 8.ff#\)	.	.
.	.	.	16gg#X\Jk 16ee#X\	.	.
!!LO:LB:g=original
=287	=287	=287	=287	=287	=287
*xywh-34:456,1956,3544,745	*xywh-34:456,1956,3544,745	*	*xywh-34:487,1546,3477,464	*	*
4r	4r	.	8aa\ 8ff#\	.	.
.	.	.	8r	.	.
(<8.BB^/L	(8.B^>/L	f	(4bb\ 4dd#X^\	.	.
32C#/LL	32c#/LL	.	.	.	.
32D#X/JJJ	32d#X/JJJ	.	.	.	.
=288	=288	=288	=288	=288	=288
8E\)	8e/)	.	(8aa\L 8ff#\	.	.
8r	8r	.	8gg\ 8een\))	.	.
.	.	.	(16qqgg\L 16qqee/	.	.
.	.	.	16qqaa\J 16qqff#/	.	.
4r	4r	.	8.gg\ 8.ee\)	.	.
.	.	.	16ff#\Jk 16dd#X\	.	.
=289	=289	=289	=289	=289	=289
4r	4r	.	8gg\ 8ee\	.	.
.	.	.	8r	.	.
(<8.AA^/L	(8.A^>/L	.	(4aa\ 4cc#\	.	.
32BB/LL	32B/LL	.	.	.	.
32C#/JJJ	32c#/JJJ	.	.	.	.
=290	=290	=290	=290	=290	=290
8D\)	8d/)	.	8gg\ 8ee\)	.	.
8r	8r	.	(4ff#\ 4ddv\	.	.
4r	4r	.	.	.	.
.	.	.	[8aa\ [8ff#\	.	.
=291	=291	=291	=291	=291	=291
*	*	*	*	*^	*
2r	2r	.	8aa\] 8ff#\])	.	.	.
.	.	.	(4gg#X\ 4eeu\	4	0	.
.	.	.	8ff#\ 8dd\	.	.	.
*	*	*	*	*v	*v	*
=292	=292	=292	=292	=292	=292
8E\	8cc#/ 8a/ 8e/ 8c#/	.	8ee\L 8cc#\)	.	.
8r	8r	.	8eeee\J	o	.
!	!	!	!LO:MO:mod=!LO&colon;TX&colon;a&colon;t=sul G&colon;dur=7q&colon;ext=ud&colon;problem=text with extension lines	!	!
!	!	!	!LO:TX:a:B:t=Sul G.:dur=7q:ext=ud:problem=text with extension lines	!	!
*	*	*	*	*below	*
4r	4r	.	[4e/	3	.
=293	=293	=293	=293	=293	=293
8EE/	8g#X/ 8d/ 8G#X/	.	12e/L]	.	.
.	.	.	12f#/	.	.
8r	8r	.	.	.	.
.	.	.	12c#/J	.	.
4r	4r	.	12e/L	.	.
.	.	.	12d/	.	.
.	.	.	12B/J	.	.
!!LO:LB:g=original
=294	=294	=294	=294	=294	=294
*xywh-34:444,3031,3544,708	*xywh-34:444,3031,3544,708	*	*xywh-34:450,2665,3599,409	*	*
*tremolo	*	*	*	*	*
32AAA/LLL	8a/ 8c#/ 8A/	.	8.A/L	.	.
32AA/	.	.	.	.	.
32AAA/	.	.	.	.	.
32AA/	.	.	.	.	.
32AAA/	8r	.	.	.	.
32AA/	.	.	.	.	.
32AAA/	.	.	16a/Jk	2	.
32AA/	.	.	.	.	.
32AAA/	4r	.	[4a/	.	.
32AA/	.	.	.	.	.
32AAA/	.	.	.	.	.
32AA/	.	.	.	.	.
32AAA/	.	.	.	.	.
32AA/	.	.	.	.	.
32AAA/	.	.	.	.	.
32AA/JJJ	.	.	.	.	.
=295	=295	=295	=295	=295	=295
32AAA/LLL	4r	.	4a/]	.	.
32AA/	.	.	.	.	.
32AAA/	.	.	.	.	.
32AA/	.	.	.	.	.
32AAA/	.	.	.	.	.
32AA/	.	.	.	.	.
32AAA/	.	.	.	.	.
32AA/	.	.	.	.	.
32AAA/	4aa\ 4a\	.	4a/	.	.
32AA/	.	.	.	.	.
32AAA/	.	.	.	.	.
32AA/	.	.	.	.	.
32AAA/	.	.	.	.	.
32AA/	.	.	.	.	.
32AAA/	.	.	.	.	.
32AA/JJJ	.	.	.	.	.
*Xtremolo	*	*	*	*	*
=296	=296	=296	=296	=296	=296
.	.	.	(>8qa/	.	.
*	*^	*	*	*	*
*	*	*^	*	*	*	*
*	*	*	*	*	*	*above	*
8r	[2aa/	(>>12gg\L	[<<2a\	.	8bb\)	o 3	.
.	.	12ff#\	.	.	.	.	.
8AA'\L	.	.	.	.	8r	.	.
.	.	12ee\J)	.	.	.	.	.
8E'\	.	[4gg\	.	.	[4ee\ [4gu\	.	.
8A'\J	.	.	.	.	.	.	.
=297	=297	=297	=297	=297	=297	=297	=297
8e'\	2aa/]	4gg\]	2a\]	.	8ee\]L 8g\]	.	.
.	.	.	.	.	(16qqee\L 16qqg/	.	.
.	.	.	.	.	16qqff#\J 16qqg/)	.	.
8r	.	.	.	.	(8ee\ 8g'^\	.	.
8AA'/	.	(>>8ff#\L	.	.	8dd#X\ 8g'^\	.	.
8r	.	8ee\J)	.	.	8ee\J 8g'^\	.	.
=298	=298	=298	=298	=298	=298	=298	=298
8r	4aa/	(>>12ff#\L	4a\	.	8ff#/L 8a'/	.	.
.	.	12ee\	.	.	.	.	.
8AA'\L	.	.	.	.	8d'/J)	.	.
.	.	12dd\J)	.	.	.	.	.
!	!	!	!LO:SIC:s=4ryy	!	!	!	!
8D'\	4raa	4a/	4rB	.	[4aa\ [4ff#\	.	.
8A'\J	.	.	.	.	.	.	.
*	*v	*v	*v	*	*	*	*
=299	=299	=299	=299	=299	=299
!	!LO:MO:mod=!LO&colon;TX&colon;a&colon;t=Tr.	!	!	!	!
!	!LO:TX:a:B:t=Trombi.	!	!	!	!
2r	8f#/L 8d/	.	8aa\] 8ff#\]	.	.
.	8A/J	.	8r	.	.
.	4a/ 4f#/	.	(4A'v^/	.	.
=300	=300	=300	=300	=300	=300
*	*^	*	*	*	*
*	*	*^	*	*	*	*
8r	[2cccn/	(>>12aa\L	[<<2ccn\	.	8ccc#\ 8dd#X\ 8f#\)	.	.
.	.	12gg\	.	.	.	.	.
8AA'\L	.	.	.	.	8r	.	.
.	.	12ff#\J)	.	.	.	.	.
8F#'\	.	4aa\	.	.	[4ff#\ [4a\	.	.
8cn'\J	.	.	.	.	.	.	.
!!LO:LB:g=original
=301	=301	=301	=301	=301	=301	=301	=301
*xywh-34:370,4064,3648,1045	*xywh-34:370,4064,3648,1045	*xywh-34:370,4064,3648,1045	*xywh-34:370,4064,3648,1045	*	*xywh-34:523,3734,3489,415	*	*
8f#\ 8d#X'\	2cccnX/]	4aa\	2ccnX\]	.	8ff#\]L 8a\]	.	.
.	.	.	.	.	(16qqff#\L 16qqa/	.	.
.	.	.	.	.	16qqgg\J 16qqa/)	.	.
8r	.	.	.	.	(8ff#\ 8a'^\	.	.
8AA'/	.	(>>8gg\L	.	.	8ee#X\ 8a'^\	.	.
8r	.	8ff#\J)	.	.	8ff#\J 8a'^\	.	.
=302	=302	=302	=302	=302	=302	=302	=302
*	*	*	*	*	*	*^	*
8r	4bb/	(>>12gg\L	4b\	.	8gg\L 8b'^\	.	.	.
.	.	12ff#\	.	.	.	.	.	.
8AA'\L	.	.	.	.	8ee'^\J)	0	.	.
.	.	12ee\J)	.	.	.	.	.	.
8E'\	4ryy	4b/	4ryy	.	[4bb\ [4gg\	1	3	.
8B'\J	.	.	.	.	.	.	.	.
*	*	*	*	*	*	*v	*v	*
*	*v	*v	*v	*	*	*	*
=303	=303	=303	=303	=303	=303
2r	8g/L 8e/	.	8bb\] 8gg\]	.	.
.	8B/J	.	8r	.	.
*	*	*	*	*below	*
.	4b/ 4g/	.	([4Bv/	1	.
=304	=304	=304	=304	=304	=304
*	*	*	*	*^	*
4r	(>12dd/L 12fn/ 12d/	f	8B/]	.	.	.
.	12cc#/	.	.	.	.	.
.	.	.	4ddd\ 4ffn\ 4g#X\)	3 4	2	.
.	12b/J)	.	.	.	.	.
!	!	!LO:DY:b=2:rj	!	!	!	!
[4G#X\ [4Fn\ [4D\ [4AA\	[4ffn/ [>4b/ [4f/	f	.	.	.	.
.	.	.	(8B/	.	.	.
=305	=305	=305	=305	=305	=305	=305
8G#X\] 8FnX\] 8D\] 8AA\]	(>12ffn/]L 12b/] 12f/]	.	8d\L)	1	.	.
.	12ee/	.	.	.	.	.
8r	.	.	(8d\	.	.	.
.	12dd/J)	.	.	.	.	.
[4G#\ [4F\ [4D\ [4AA\	[4bb\ [4dd\ [4b\	.	8fffn\ 8gg#X\ 8b\)	3 4	2	.
.	.	.	8d\J	.	.	.
=306	=306	=306	=306	=306	=306	=306
8G#X\] 8FnX\] 8D\] 8AA\]	(12bb\]L 12dd\] 12b\]	.	8fn\L	1	.	.
.	12aa\	.	.	.	.	.
.	.	.	(>>8qf/	.	.	.
8r	.	.	8ggg#X\ 8bb\ 8dd\)	3 4	2	.
.	12gg#X\J)	.	.	.	.	.
[4G#\ [4F\ [4D\ [4AA\	[4ddd\ [4ffn\ [4dd\	.	8g#X\	.	.	.
.	.	.	(>>8qg#/	.	.	.
.	.	.	8bbb\J 8ddd\ 8ffn\)	.	.	.
*	*	*	*	*v	*v	*
=307	=307	=307	=307	=307	=307
*	*	*	*8va	*	*
8G#\] 8F\] 8D\] 8AA\]	8ddd\] 8ffnX\] 8dd\]	.	8b\L	1	.
.	.	.	(>>8qb/	.	.
8r	8r	.	8dddd\ 8fffn\ 8gg#X\)	.	.
!LO:TX:t=P:problem=fermata na kresce taktowej	!LO:TX:t=P:problem=fermata na kresce taktowej	!	!	!	!
4r;	4r;	.	8dd\	1	.
.	.	.	(>>8qdd/	.	.
.	.	.	8ffff#\J 8ggg#X\ 8bb\)	.	.
*	*	*	*X8va	*	*
!!LO:PB:g=original
=308	=308	=308	=308;	=308	=308
*xywh-35:132,859,3510,743	*xywh-35:132,859,3510,743	*	*xywh-35:126,293,3669,597	*	*
*tremolo	*	*	*	*above	*
!	!	!	!	!	!LO:DY:t=ff brillante con fuoco.:mod=ff brillante con fuoco
32AAA/LLL	16r	ff	(8.aa\L 8.a\	1	ff
32AA/	.	.	.	.	.
32AAA/	16a\LL	.	.	.	.
32AA/	.	.	.	.	.
32AAA/	16b\	.	.	.	.
32AA/	.	.	.	.	.
32AAA/	16cc#\JJ	.	16aaa\Jk 16aa\)	.	.
32AA/	.	.	.	.	.
32AAA/	16dd\LL	.	(8.aaa\L 8.aa\	.	.
32AA/	.	.	.	.	.
32AAA/	16cc#\	.	.	.	.
32AA/	.	.	.	.	.
32AAA/	16dd\	.	.	.	.
32AA/	.	.	.	.	.
32AAA/	16ff#\JJ	.	16ggg#X\Jk 16gg#X\)	.	.
32AA/JJJ	.	.	.	.	.
=309	=309	=309	=309	=309	=309
32AAA/LLL	16ee\LL	.	(8.ggg#X\L 8.gg#X\	.	.
32AA/	.	.	.	.	.
32AAA/	16dd\	.	.	.	.
32AA/	.	.	.	.	.
32AAA/	16b\	.	.	.	.
32AA/	.	.	.	.	.
32AAA/	16dd\JJ	.	16gggn\Jk 16ggn\)	.	.
32AA/	.	.	.	.	.
32AAA/	16cc#\LL	.	(8.ggg\L 8.gg\	.	.
32AA/	.	.	.	.	.
32AAA/	16dd\	.	.	.	.
32AA/	.	.	.	.	.
32AAA/	16ee\	.	.	.	.
32AA/	.	.	.	.	.
32AAA/	16aa\JJ	.	16fff#\Jk 16ff#\)	.	.
32AA/JJJ	.	.	.	.	.
=310	=310	=310	=310	=310	=310
32AAA/LLL	(8.ff#^\L	.	(8.fff#\L 8.ff#\	.	.
32AA/	.	.	.	.	.
32AAA/	.	.	.	.	.
32AA/	.	.	.	.	.
32AAA/	.	.	.	.	.
32AA/	.	.	.	.	.
32AAA/	16ddn\k	.	16eee#X\Jk 16ee#X\)	.	.
32AA/	.	.	.	.	.
32AAA/	8.b-X^\	.	(8.eee#\L 8.ee#\	.	.
32AA/	.	.	.	.	.
32AAA/	.	.	.	.	.
32AA/	.	.	.	.	.
32AAA/	.	.	.	.	.
32AA/	.	.	.	.	.
32AAA/	16ccn\Jk)	.	16fff#\Jk 16ff#\)	.	.
32AA/JJJ	.	.	.	.	.
=311	=311	=311	=311	=311	=311
32AAA/LLL	8a/	.	(8.fff#\L 8.ff#\	.	.
32AA/	.	.	.	.	.
32AAA/	.	.	.	.	.
32AA/	.	.	.	.	.
32AAA/	8r	.	.	.	.
32AA/	.	.	.	.	.
32AAA/	.	.	16ddd\Jk 16dd\)	.	.
32AA/	.	.	.	.	.
32AAA/	4g#X/ 4fn/ 4d/ 4G#X^>/	.	(8.bb-X\L 8.dd\	.	.
32AA/	.	.	.	.	.
32AAA/	.	.	.	.	.
32AA/	.	.	.	.	.
32AAA/	.	.	.	.	.
32AA/	.	.	.	.	.
32AAA/	.	.	16cccn\Jk 16dd\)	.	.
32AA/JJJ	.	.	.	.	.
=312	=312	=312	=312	=312	=312
*	*	*	*	*^	*
32AAA/LLL	16a/LL 16f#X/ 16d/ 16A/	.	(8.aa\L 8.a\	1	.	.
32AA/	.	.	.	.	.	.
32AAA/	16A/	.	.	.	.	.
32AA/	.	.	.	.	.	.
32AAA/	16B/	.	.	.	.	.
32AA/	.	.	.	.	.	.
32AAA/	16c#/JJ	.	16aa\Jk 16a\)	4	1	.
32AA/	.	.	.	.	.	.
32AAA/	16d/LL	.	(8.aa\L 8.a\	.	.	.
32AA/	.	.	.	.	.	.
32AAA/	16c#/	.	.	.	.	.
32AA/	.	.	.	.	.	.
32AAA/	16d/	.	.	.	.	.
32AA/	.	.	.	.	.	.
32AAA/	16f#/JJ	.	16gg#X\Jk 16g#X\)	.	.	.
32AA/JJJ	.	.	.	.	.	.
*	*	*	*	*v	*v	*
=313	=313	=313	=313	=313	=313
32AAA/LLL	16e/LL	.	(8.gg#X\L 8.g#X\	.	.
32AA/	.	.	.	.	.
32AAA/	16d/	.	.	.	.
32AA/	.	.	.	.	.
32AAA/	16B/	.	.	.	.
32AA/	.	.	.	.	.
32AAA/	16d/JJ	.	16ggn\Jk 16gn\)	.	.
32AA/	.	.	.	.	.
32AAA/	16c#/LL	.	(8.gg\L 8.g\	.	.
32AA/	.	.	.	.	.
32AAA/	16d/	.	.	.	.
32AA/	.	.	.	.	.
32AAA/	16e/	.	.	.	.
32AA/	.	.	.	.	.
32AAA/	16a/JJ	.	16ff#\Jk 16f#\)	.	.
32AA/JJJ	.	.	.	.	.
!!LO:LB:g=original
=314	=314	=314	=314	=314	=314
*xywh-35:169,1932,3541,792	*xywh-35:169,1932,3541,792	*	*xywh-35:150,1579,3547,408	*	*
32AAA/LLL	8.f#/L	.	(8.ff#\L 8.f#\	.	.
32AA/	.	.	.	.	.
32AAA/	.	.	.	.	.
32AA/	.	.	.	.	.
32AAA/	.	.	.	.	.
32AA/	.	.	.	.	.
32AAA/	16d/k	.	16ee#X\Jk 16e#X\)	.	.
32AA/	.	.	.	.	.
32AAA/	8.B-X/	.	(8.ee#\L 8.e#\	.	.
32AA/	.	.	.	.	.
32AAA/	.	.	.	.	.
32AA/	.	.	.	.	.
32AAA/	.	.	.	.	.
32AA/	.	.	.	.	.
32AAA/	16cn/Jk	.	16ff#\Jk 16f#\)	.	.
32AA/JJJ	.	.	.	.	.
=315	=315	=315	=315	=315	=315
32AAA\LLL	8A/	.	(8.ff#/L 8.f#/	.	.
32AA\	.	.	.	.	.
32AAA\	.	.	.	.	.
32AA\	.	.	.	.	.
32AAA\	8r	.	.	.	.
32AA\	.	.	.	.	.
32AAA\	.	.	16dd/Jk 16d/)	.	.
32AA\	.	.	.	.	.
32AAA\	4fn/ 4d/ 4G#X</ 4Fn<^>/	.	(8.b-X/L 8.d/	.	.
32AA\	.	.	.	.	.
32AAA\	.	.	.	.	.
32AA\	.	.	.	.	.
32AAA\	.	.	.	.	.
32AA\	.	.	.	.	.
32AAA\	.	.	16ccn/Jk 16d/)	.	.
32AA\JJJ	.	.	.	.	.
*Xtremolo	*	*	*	*	*
=316	=316	=316	=316	=316	=316
8AA\ 8AAA\	8f#X/ 8d/ 8A</ 8F#X</	.	16a\LL 16d`\	.	.
.	.	.	(16a\ 16d\	.	.
8d\L	8ddd\L 8dd\	.	16ddd\ 16dd\)	.	.
.	.	.	(16ddd\JJ 16dd\	.	.
8B-X\	8bb-X\ 8b-X\	.	16bb-X\LL 16dd\)	.	.
.	.	.	(16bb-\ 16dd\	.	.
8cn\J	8cccn\J 8ccn\	.	16ccc#\ 16dd\)	.	.
.	.	.	(16ccc#\JJ 16dd\	.	.
=317	=317	=317	=317	=317	=317
8A\	8aa\ 8a\	.	16aa\LL 16dd\)	.	.
.	.	.	(16aa\ 16dd\	.	.
8D/L	8dd/L 8d/	.	16dd\ 16d\)	.	.
.	.	.	(16dd\JJ 16d\	.	.
8BB-X/	8b-X/ 8B-X/	.	16b-X\LL 16d\)	.	.
.	.	.	(16b-\ 16d\	.	.
8Cn/J	8ccn/J 8cn/	.	16ccn\ 16d\)	.	.
.	.	.	(16cc\JJ 16d\	.	.
=318	=318	=318	=318	=318	=318
8AA/L	8a/L 8A/	.	16a/LL 16d/)	.	.
.	.	.	16a/ 16d/	.	.
8AA/J	8e#X/ 8c#/ 8A/	.	16e#X/ 16A/	.	.
.	.	.	16e#/JJ 16A/	.	.
8D/L 8DD/	8f#/ 8d/ 8A/	.	16f#/LL 16A/	.	.
.	.	.	16f#/ 16A/	.	.
8AA/J	8a/J 8e#/ 8c#/	.	16a/ 16e#/	.	.
.	.	.	16a/JJ 16e#/	.	.
=319	=319	=319	=319	=319	=319
8D/L 8DD/	8a/L 8f#/ 8d/	.	16dd\LL 16f#\	.	.
.	.	.	16dd\ 16f#\	.	.
8AA/	8cc#/ 8a/ 8e#X/	.	16ee#X\ 16a\	.	.
.	.	.	16ee#\JJ 16a\	.	.
8D/ 8DD/	8dd/ 8a/ 8f#/	.	16ff#\LL 16a\	.	.
.	.	.	16ff#\ 16a\	.	.
8AA/J	8ee#X/J 8cc#/ 8a/	.	16aa\ 16a\	.	.
.	.	.	16aa\JJ 16a\	.	.
!!LO:LB:g=original
=320	=320	=320	=320	=320	=320
*xywh-35:175,3029,3608,768	*xywh-35:175,3029,3608,768	*	*xywh-35:187,2676,3541,444	*	*
!	!	!	!LO:TX:t=P:problem=mixed beam	!	!
8D/ 8DD/	8ff#\ 8dd\ 8a\	.	16ddd\LL 16dd\	.	.
.	.	.	(16A/	.	.
8r	8r	.	16B/	.	.
.	.	.	16c#/JJ)	.	.
4r	8ddd\ 8dd\	p	16d/LL	.	.
.	.	.	16c#/	.	.
.	8r	.	16d/	.	.
.	.	.	16f#/JJ	.	.
=321	=321	=321	=321	=321	=321
2r	8aa\ 8a\	.	(16a\LL	4	.
.	.	.	16a\)	0	.
.	8r	.	16bv\	.	.
.	.	.	16cc#\JJ	.	.
.	8ff#\ 8f#\	.	16dd\LL	.	.
.	.	.	16cc#\	.	.
.	8r	.	16dd\	.	.
.	.	.	16ff#\JJ	.	.
=322	=322	=322	=322	=322	=322
4r	8dd/ 8d/	<	16aa\LL	.	.
.	.	.	16gg#X\	.	.
.	8r	.	16bb\	2	.
.	.	.	16aa\JJ	.	.
8f#\ 8F#\	8dd\	.	16ddd\LL	2	.
.	.	.	16ccc#\	.	.
8r	8r	.	16eee\	.	.
.	.	.	16ddd\JJ	.	.
=323	=323	=323	=323	=323	=323
!	!	!	!	!LO:MO:mod=*null:null	!
*	*	*	*8va	*below	*
8A\ 8AA\	8a/	.	16fff#\LL	2	.
.	.	.	16eee#X\	1	.
8r	8r	.	16ggg\	.	.
.	.	.	16fff#\JJ	.	.
8F#/ 8FF#/	8f#/	.	16aaa\LL	2	.
.	.	.	16ggg#X\	1	.
8r	8r	[	16bbb\	.	.
.	.	.	16aaa\JJ	.	.
=324	=324	=324	=324	=324	=324
8D/ 8DD/	8d/	.	8dddd\	.	.
*	*	*	*X8va	*	*
8r	8r	.	8r	.	.
8A\ 8E\ 8AA\	8aa\ 8ee\ 8cc#\ 8a\	f	8aa/ 8cc#/ 8e/ 8A/	.	.
8r	8r	.	8r	.	.
=325	=325	=325	=325	=325	=325
8d\ 8A\ 8D\	8ff#/ 8dd/ 8a/ 8f#/	.	8ff#/ 8a/ 8e/	.	.
8r	8r	.	8r	.	.
8c#\ 8A\	8ee/ 8cc#/ 8a/ 8e/	.	8ee/ 8a/ 8e/	.	.
8r	8r	.	8r	.	.
=326	=326	=326	=326	=326	=326
8d\ 8A\ 8D\	8ff#\ 8dd\ 8a\ 8f#\	.	8ff#/ 8a/ 8d/	.	.
8r	8r	.	8r	.	.
8A\ 8E\ 8AA\	8aa\ 8ee\ 8cc#\ 8a\	.	8aa\ 8a\	.	.
8r	8r	.	8r	.	.
!!LO:LB:g=original
=327	=327	=327	=327	=327	=327
*xywh-35:181,4053,3590,1066	*xywh-35:181,4053,3590,1066	*	*xywh-35:175,3700,3559,420	*	*
8D/ 8AA/ 8DD/	8ddd\ 8aa\ 8ff#\ 8dd\	.	8ddd\ 8a\	.	.
8r	8r	.	8r	.	.
8AA/ 8EE/ 8AAA/	8eee\ 8ccc#\ 8aa\ 8ee\	.	8eee\ 8a\	.	.
8r	8r	.	8r	.	.
=328	=328	=328	=328	=328	=328
8DD/ 8AAA/ 8DDD/	8fff#\ 8ddd\ 8aa\ 8ff#\	.	8fff#\ 8a\ 8d\	.	.
8r	8r	.	8r	.	.
4r	4r	.	4r	.	.
=329	=329	=329	=329	=329	=329
8d\ 8A\ 8F#\	8ff#/ 8dd/ 8a/ 8f#/	.	8ff#/ 8a/ 8d/	.	.
8r	8r	.	8r	.	.
4r	4r	.	4r	.	.
=330	=330	=330	=330	=330	=330
8D/ 8DD/	8d/	.	8d/ 8d/	.	.
8r	8r	.	8r	.	.
4r	4r	.	4r	.	.
=331	=331	=331	=331	=331	=331
!	!	!	!LO:N:n=2:vis=2:head=rhombus:harmonic	!	!
!	!	!	!LO:TX:t=P:problem=flażolet nie wyświetla się	!	!
8a>\ 8d>\	8ddd/ 8aa/ 8ff#/ 8dd/	.	4rffff#yy\ 4rbb\ 4rff#\ 4a\ 4d\	.	.
8ryy	8r	.	.	.	.
4ryy	4r	.	8.r	.	.
.	.	.	16d/ 16d/	.	.
=332	=332	=332	=332	=332	=332
*tremolo	*	*	*	*	*
!	!	!LO:DY:rj	!	!	!LO:DY:rj
32DDD\LLL	[2d/ [2D</	ff	[2d/ [2d/	.	ff
32DD\	.	.	.	.	.
32DDD\	.	.	.	.	.
32DD\	.	.	.	.	.
32DDD\	.	.	.	.	.
32DD\	.	.	.	.	.
32DDD\	.	.	.	.	.
32DD\	.	.	.	.	.
32DDD\	.	.	.	.	.
32DD\	.	.	.	.	.
32DDD\	.	.	.	.	.
32DD\	.	.	.	.	.
32DDD\	.	.	.	.	.
32DD\	.	.	.	.	.
32DDD\	.	.	.	.	.
32DD\JJJ	.	.	.	.	.
=333	=333	=333	=333	=333	=333
32DDD\LLL	2d/_ 2D</_	.	2d/_ 2d/_	.	.
32DD\	.	.	.	.	.
32DDD\	.	.	.	.	.
32DD\	.	.	.	.	.
32DDD\	.	.	.	.	.
32DD\	.	.	.	.	.
32DDD\	.	.	.	.	.
32DD\	.	.	.	.	.
32DDD\	.	.	.	.	.
32DD\	.	.	.	.	.
32DDD\	.	.	.	.	.
32DD\	.	.	.	.	.
32DDD\	.	.	.	.	.
32DD\	.	.	.	.	.
32DDD\	.	.	.	.	.
32DD\JJJ	.	.	.	.	.
=334	=334	=334	=334	=334	=334
8DDD\	8d/] 8D</]	.	8d/] 8d/]	.	.
8r	8r	.	8r	.	.
!LO:TX:b:i:t=FINE.:mod=	!	!	!	!	!
4r;	4r;	.	4r;	.	.
==	==	==	==	==	==
*-	*-	*-	*-	*-	*-
!!!system-decoration: (s1){(s2,s3)}
!!!RDF**kern: > = above
!!!RDF**kern: < = below
!!!RDF**kern: N = linked
!!!filter-modern: shed -k -e "s/([^a-gA-Gn#X-])[<>]/$1/g" | shed -e "s/^(X?)tuplet$/$1TUPLET/I" | shed -e "s/TX(.*):t=P:/tx$1:t=P:/LG" | shed -e "s/:rj/:RJ/L" | sic -sq | modori -m
!!!ENC: Arkadiusz Malec
!!!END: 2022-05-16
!!!ENC: Andrzej Borzym
!!!END: 2022-05-23
!!!ENC-modern: Andrzej Kubiczek
!!!END-modern: 2022-07-21
!!!IIIF: https://polona.pl/iiif/item/ODQxMDEyMDI/manifest.json
!!!ENC-iiif: Natalia Wrzos
!!!END-iiif: 2022-08-30
!!!YEC: Copyright 2022 Narodowy Instytut Fryderyka Chopina (https://polishscores.org)
!!!YEM: License CC-BY-4.0 (https://creativecommons.org/licenses/by/4.0)
